;FLAVOR:Marlin
;TIME:2100
;Filament used: 1.81152m
;Layer height: 0.2
;MINX:78.046
;MINY:87
;MINZ:0.2
;MAXX:143.026
;MAXY:133
;MAXZ:15.2
;Generated with Cura_SteamEngine 4.11.0
M140 S45
M105
M190 S45
M104 S205
M105
M109 S205
M82 ;absolute extrusion mode
; Ender 3 Custom Start G-code
G92 E0 ; Reset Extruder
G28 ; Home all axes
G1 Z2.0 F3000 ; Move Z Axis up little to prevent scratching of Heat Bed
G1 X0.1 Y20 Z0.3 F5000.0 ; Move to start position
G1 X0.1 Y200.0 Z0.3 F1500.0 E15 ; Draw the first line
G1 X0.4 Y200.0 Z0.3 F5000.0 ; Move to side a little
G1 X0.4 Y20 Z0.3 F1500.0 E30 ; Draw the second line
G92 E0 ; Reset Extruder
G1 Z2.0 F3000 ; Move Z Axis up little to prevent scratching of Heat Bed
G1 X5 Y20 Z0.3 F5000.0 ; Move over to prevent blob squish
G92 E0
G92 E0
G1 F1200 E-4
;LAYER_COUNT:76
;LAYER:0
M107
G0 F13200 X81.925 Y89.633 Z0.2
;TYPE:SKIRT
G1 F1200 E0
G1 F2700 X82.665 Y89.056 E0.03121
G1 X83.451 Y88.544 E0.06241
G1 X84.278 Y88.101 E0.09361
G1 X85.139 Y87.73 E0.1248
G1 X86.029 Y87.434 E0.15599
G1 X86.941 Y87.215 E0.18719
G1 X87.868 Y87.074 E0.21837
G1 X88.78 Y87.013 E0.24878
G1 X89.181 Y87.003 E0.26212
G1 X89.455 Y87 E0.27123
G1 X131.319 Y87 E1.66363
G1 X132.175 Y87.011 E1.69211
G1 X133.111 Y87.065 E1.72329
G1 X134.039 Y87.197 E1.75447
G1 X134.953 Y87.409 E1.78567
G1 X135.845 Y87.698 E1.81686
G1 X136.71 Y88.061 E1.84806
G1 X137.54 Y88.497 E1.87924
G1 X138.331 Y89.002 E1.91046
G1 X139.075 Y89.573 E1.94165
G1 X139.768 Y90.205 E1.97284
G1 X140.405 Y90.893 E2.00403
G1 X140.98 Y91.634 E2.03522
G1 X141.491 Y92.42 E2.06641
G1 X141.933 Y93.248 E2.09762
G1 X142.302 Y94.11 E2.12881
G1 X142.597 Y95 E2.16
G1 X142.815 Y95.912 E2.19118
G1 X142.955 Y96.84 E2.2224
G1 X143.013 Y97.701 E2.2511
G1 X143.022 Y98.021 E2.26175
G1 X143.026 Y98.33 E2.27203
G1 X143.025 Y121.4 E3.03934
G1 X143.016 Y122.127 E3.06352
G1 X142.965 Y123.064 E3.09473
G1 X142.833 Y123.992 E3.12591
G1 X142.624 Y124.906 E3.15709
G1 X142.337 Y125.799 E3.18829
G1 X141.975 Y126.665 E3.21951
G1 X141.541 Y127.496 E3.25069
G1 X141.037 Y128.287 E3.28188
G1 X140.468 Y129.032 E3.31306
G1 X139.837 Y129.727 E3.34428
G1 X139.15 Y130.365 E3.37547
G1 X138.411 Y130.942 E3.40665
G1 X137.625 Y131.454 E3.43785
G1 X136.799 Y131.897 E3.46903
G1 X135.937 Y132.269 E3.50025
G1 X135.048 Y132.565 E3.53142
G1 X134.136 Y132.785 E3.56262
G1 X133.209 Y132.926 E3.59381
G1 X132.325 Y132.987 E3.62328
G1 X132.004 Y132.996 E3.63396
G1 X131.696 Y133 E3.6442
G1 X89.611 Y132.999 E5.04396
G1 X88.913 Y132.99 E5.06717
G1 X87.977 Y132.938 E5.09835
G1 X87.048 Y132.806 E5.12956
G1 X86.134 Y132.596 E5.16075
G1 X85.241 Y132.309 E5.19195
G1 X84.376 Y131.946 E5.22315
G1 X83.545 Y131.512 E5.25433
G1 X82.754 Y131.008 E5.28553
G1 X82.009 Y130.438 E5.31673
G1 X81.315 Y129.807 E5.34793
G1 X80.678 Y129.12 E5.37909
G1 X80.101 Y128.38 E5.4103
G1 X79.589 Y127.594 E5.4415
G1 X79.146 Y126.767 E5.4727
G1 X78.775 Y125.906 E5.50388
G1 X78.479 Y125.016 E5.53508
G1 X78.26 Y124.104 E5.56627
G1 X78.119 Y123.177 E5.59746
G1 X78.058 Y122.268 E5.62776
G1 X78.049 Y121.911 E5.63964
G1 X78.046 Y121.634 E5.64885
G1 X78.046 Y98.566 E6.4161
G1 X78.055 Y97.868 E6.43932
G1 X78.107 Y96.932 E6.4705
G1 X78.239 Y96.003 E6.5017
G1 X78.449 Y95.089 E6.5329
G1 X78.736 Y94.196 E6.56409
G1 X79.099 Y93.331 E6.59529
G1 X79.533 Y92.5 E6.62648
G1 X80.037 Y91.709 E6.65767
G1 X80.607 Y90.964 E6.68887
G1 X81.238 Y90.27 E6.72007
G1 X81.925 Y89.633 E6.75123
G0 F13200 X82.314 Y89.829
G1 F2700 X83.049 Y89.275 E6.78184
G1 X83.83 Y88.787 E6.81247
G1 X84.65 Y88.368 E6.8431
G1 X85.503 Y88.022 E6.87371
G1 X86.383 Y87.752 E6.90433
G1 X87.284 Y87.559 E6.93498
G1 X88.197 Y87.445 E6.96558
G1 X88.79 Y87.413 E6.98533
G1 X89.191 Y87.403 E6.99867
G1 X89.455 Y87.4 E7.00745
G1 X131.319 Y87.4 E8.39986
G1 X132.169 Y87.411 E8.42813
G1 X133.088 Y87.464 E8.45875
G1 X133.999 Y87.597 E8.48937
G1 X134.895 Y87.808 E8.51998
G1 X135.769 Y88.096 E8.55059
G1 X136.616 Y88.459 E8.58124
G1 X137.427 Y88.894 E8.61185
G1 X138.197 Y89.398 E8.64246
G1 X138.921 Y89.967 E8.67309
G1 X139.593 Y90.597 E8.70372
G1 X140.208 Y91.282 E8.73434
G1 X140.761 Y92.018 E8.76496
G1 X141.248 Y92.799 E8.79557
G1 X141.665 Y93.62 E8.8262
G1 X142.01 Y94.474 E8.85683
G1 X142.279 Y95.354 E8.88744
G1 X142.471 Y96.255 E8.91808
G1 X142.584 Y97.168 E8.94868
G1 X142.613 Y97.712 E8.9668
G1 X142.622 Y98.032 E8.97745
G1 X142.626 Y98.33 E8.98736
G1 X142.625 Y121.395 E9.7545
G1 X142.616 Y122.122 E9.77868
G1 X142.565 Y123.041 E9.8093
G1 X142.434 Y123.953 E9.83994
G1 X142.224 Y124.849 E9.87055
G1 X141.938 Y125.724 E9.90117
G1 X141.577 Y126.571 E9.93179
G1 X141.143 Y127.383 E9.96241
G1 X140.641 Y128.155 E9.99304
G1 X140.073 Y128.88 E10.02368
G1 X139.445 Y129.553 E10.05429
G1 X138.761 Y130.169 E10.08491
G1 X138.026 Y130.723 E10.11552
G1 X137.246 Y131.212 E10.14614
G1 X136.426 Y131.631 E10.17677
G1 X135.573 Y131.977 E10.20738
G1 X134.693 Y132.248 E10.23801
G1 X133.793 Y132.441 E10.26862
G1 X132.879 Y132.556 E10.29926
G1 X132.314 Y132.587 E10.31808
G1 X131.993 Y132.596 E10.32876
G1 X131.696 Y132.6 E10.33864
G1 X89.616 Y132.599 E11.73823
G1 X88.918 Y132.59 E11.76145
G1 X87.999 Y132.538 E11.79206
G1 X87.088 Y132.407 E11.82267
G1 X86.192 Y132.197 E11.85328
G1 X85.317 Y131.91 E11.88391
G1 X84.47 Y131.548 E11.91455
G1 X83.658 Y131.114 E11.94517
G1 X82.887 Y130.612 E11.97577
G1 X82.162 Y130.044 E12.0064
G1 X81.489 Y129.415 E12.03704
G1 X80.874 Y128.731 E12.06763
G1 X80.32 Y127.996 E12.09825
G1 X79.832 Y127.215 E12.12888
G1 X79.413 Y126.395 E12.1595
G1 X79.067 Y125.542 E12.19012
G1 X78.797 Y124.662 E12.22074
G1 X78.604 Y123.761 E12.25138
G1 X78.49 Y122.848 E12.28199
G1 X78.458 Y122.258 E12.30164
G1 X78.449 Y121.901 E12.31352
G1 X78.446 Y121.634 E12.3224
G1 X78.446 Y98.571 E13.08948
G1 X78.455 Y97.873 E13.11269
G1 X78.507 Y96.954 E13.14331
G1 X78.638 Y96.043 E13.17392
G1 X78.848 Y95.147 E13.20453
G1 X79.135 Y94.272 E13.23516
G1 X79.497 Y93.425 E13.26579
G1 X79.931 Y92.613 E13.29642
G1 X80.433 Y91.842 E13.32702
G1 X81.001 Y91.117 E13.35765
G1 X81.63 Y90.444 E13.38829
G1 X82.314 Y89.829 E13.41888
G0 F13200 X82.702 Y90.029
G1 F2700 X83.433 Y89.499 E13.44891
G1 X84.208 Y89.035 E13.47895
G1 X85.021 Y88.641 E13.509
G1 X85.865 Y88.321 E13.53902
G1 X86.735 Y88.077 E13.56908
G1 X87.623 Y87.911 E13.59912
G1 X88.8 Y87.813 E13.63841
G1 X89.201 Y87.803 E13.65175
G1 X89.455 Y87.8 E13.6602
G1 X131.319 Y87.8 E15.0526
G1 X132.163 Y87.811 E15.08067
G1 X133.065 Y87.864 E15.11073
G1 X133.958 Y87.996 E15.14075
G1 X134.836 Y88.207 E15.17078
G1 X135.692 Y88.495 E15.20082
G1 X136.519 Y88.857 E15.23085
G1 X137.311 Y89.292 E15.2609
G1 X138.062 Y89.794 E15.29095
G1 X138.765 Y90.361 E15.32099
G1 X139.415 Y90.988 E15.35102
G1 X140.007 Y91.67 E15.38106
G1 X140.537 Y92.401 E15.41109
G1 X140.999 Y93.177 E15.44113
G1 X141.392 Y93.99 E15.47116
G1 X141.71 Y94.835 E15.50119
G1 X141.953 Y95.705 E15.53124
G1 X142.118 Y96.593 E15.56128
G1 X142.213 Y97.723 E15.59899
G1 X142.222 Y98.043 E15.60964
G1 X142.226 Y98.33 E15.61919
G1 X142.225 Y121.39 E16.38617
G1 X142.216 Y122.117 E16.41035
G1 X142.165 Y123.019 E16.4404
G1 X142.034 Y123.913 E16.47045
G1 X141.825 Y124.791 E16.50047
G1 X141.539 Y125.648 E16.53052
G1 X141.178 Y126.476 E16.56056
G1 X140.746 Y127.268 E16.59057
G1 X140.245 Y128.02 E16.62062
G1 X139.679 Y128.724 E16.65066
G1 X139.054 Y129.375 E16.68068
G1 X138.373 Y129.969 E16.71074
G1 X137.642 Y130.5 E16.74079
G1 X136.868 Y130.964 E16.7708
G1 X136.055 Y131.358 E16.80085
G1 X135.211 Y131.678 E16.83087
G1 X134.341 Y131.923 E16.86093
G1 X133.454 Y132.089 E16.89095
G1 X132.303 Y132.187 E16.92937
G1 X131.982 Y132.196 E16.94005
G1 X131.696 Y132.2 E16.94956
G1 X89.621 Y132.199 E18.34898
G1 X88.923 Y132.19 E18.3722
G1 X88.022 Y132.139 E18.40222
G1 X87.128 Y132.007 E18.43227
G1 X86.25 Y131.798 E18.46229
G1 X85.393 Y131.511 E18.49235
G1 X84.566 Y131.15 E18.52236
G1 X83.773 Y130.717 E18.55241
G1 X83.022 Y130.216 E18.58244
G1 X82.318 Y129.65 E18.61248
G1 X81.667 Y129.024 E18.64252
G1 X81.074 Y128.343 E18.67256
G1 X80.544 Y127.612 E18.70259
G1 X80.08 Y126.837 E18.73263
G1 X79.686 Y126.024 E18.76268
G1 X79.366 Y125.18 E18.7927
G1 X79.122 Y124.31 E18.82276
G1 X78.956 Y123.422 E18.8528
G1 X78.858 Y122.248 E18.89198
G1 X78.849 Y121.891 E18.90386
G1 X78.846 Y121.634 E18.91241
G1 X78.846 Y98.576 E19.67932
G1 X78.855 Y97.878 E19.70254
G1 X78.906 Y96.977 E19.73256
G1 X79.038 Y96.083 E19.76261
G1 X79.247 Y95.205 E19.79263
G1 X79.534 Y94.348 E19.82269
G1 X79.895 Y93.521 E19.8527
G1 X80.328 Y92.728 E19.88275
G1 X80.829 Y91.977 E19.91278
G1 X81.395 Y91.273 E19.94283
G1 X82.021 Y90.622 E19.97286
G1 X82.702 Y90.029 E20.0029
G1 F1200 E16.0029
;MESH:~ks_001.stl
G0 F13200 X89.365 Y97.335
G0 X89.365 Y98.32
G0 X89.837 Y99.804
G0 X91.042 Y99.266
G0 X92.801 Y100.017
G0 X94.18 Y101.096
G0 X93.582 Y103.895
G0 X90.66 Y104.623
G0 X89.838 Y104.193
G0 X89.838 Y115.803
G0 X92.727 Y115.486
G0 X94.325 Y117.805
G0 X93.024 Y120.355
G0 X90.171 Y120.399
G0 X89.838 Y120.2
G0 X89.828 Y121.218
G0 X131.244 Y121.218
G0 X131.216 Y119.763
G0 X128.783 Y120.586
;TYPE:WALL-INNER
G1 F1200 E20.0029
G1 F3000 X129.149 Y120.601 E20.01508
G1 X129.552 Y120.554 E20.02858
G1 X129.904 Y120.461 E20.04069
G1 X130.204 Y120.336 E20.0515
G1 X130.582 Y120.109 E20.06616
G1 X130.833 Y119.902 E20.07698
G1 X131.031 Y119.693 E20.08656
G1 X131.052 Y119.671 E20.08757
G1 X131.265 Y119.378 E20.09962
G1 X131.426 Y119.074 E20.11106
G1 X131.426 Y119.378 E20.11283
G1 X131.426 Y119.671 E20.11916
G1 X131.426 Y119.702 E20.12016
G1 X131.426 Y121.4 E20.17664
G1 X89.646 Y121.4 E21.56625
G1 X89.646 Y120.131 E21.60846
G1 X89.646 Y120.051 E21.61112
G1 X89.646 Y119.837 E21.61823
G1 X89.646 Y119.755 E21.62096
G1 X89.717 Y119.837 E21.62186
G1 X89.959 Y120.051 E21.62837
G1 X90.025 Y120.095 E21.63076
G1 X90.257 Y120.251 E21.64005
G1 X90.543 Y120.395 E21.6507
G1 X90.846 Y120.502 E21.66139
G1 X91.284 Y120.587 E21.67623
G1 X91.653 Y120.6 E21.68851
G1 X92.096 Y120.545 E21.70336
G1 X92.532 Y120.413 E21.71851
G1 X92.934 Y120.209 E21.7335
G1 X93.197 Y120.019 E21.7443
G1 X93.458 Y119.777 E21.75613
G1 X93.664 Y119.529 E21.76686
G1 X93.857 Y119.219 E21.779
G1 X94.018 Y118.848 E21.79245
G1 X94.111 Y118.499 E21.80447
G1 X94.154 Y118.18 E21.81517
G1 X94.154 Y117.818 E21.82721
G1 X94.103 Y117.459 E21.83927
G1 X94.003 Y117.111 E21.85132
G1 X93.856 Y116.779 E21.86339
G1 X93.663 Y116.47 E21.87551
G1 X93.431 Y116.195 E21.88748
G1 X93.196 Y115.98 E21.89807
G1 X92.938 Y115.794 E21.90865
G1 X92.655 Y115.641 E21.91935
G1 X92.322 Y115.513 E21.93121
G1 X92.009 Y115.438 E21.94192
G1 X91.699 Y115.403 E21.9523
G1 X91.507 Y115.4 E21.95868
G1 X91.154 Y115.431 E21.97047
G1 X90.797 Y115.512 E21.98264
G1 X90.461 Y115.641 E21.99461
G1 X90.18 Y115.794 E22.00526
G1 X90.018 Y115.91 E22.01188
G1 X89.921 Y115.98 E22.01586
G1 X89.688 Y116.194 E22.02638
G1 X89.646 Y116.243 E22.02853
G1 X89.646 Y116.194
G1 X89.646 Y115.981 E22.03235
G1 X89.646 Y115.861 E22.03579
G1 X89.646 Y104.166 E22.42477
G1 X89.646 Y103.935 E22.43245
G1 X89.645 Y103.756 E22.4384
G1 X89.82 Y103.934 E22.44152
G1 X90.002 Y104.076 E22.44724
G1 X90.103 Y104.156 E22.45153
G1 X90.416 Y104.337 E22.46355
G1 X90.715 Y104.46 E22.47431
G1 X91.105 Y104.562 E22.48771
G1 X91.468 Y104.6 E22.49985
G1 X91.829 Y104.587 E22.51187
G1 X92.189 Y104.524 E22.52402
G1 X92.536 Y104.411 E22.53616
G1 X92.934 Y104.209 E22.55101
G1 X93.197 Y104.019 E22.5618
G1 X93.458 Y103.777 E22.57364
G1 X93.664 Y103.529 E22.58436
G1 X93.857 Y103.219 E22.5965
G1 X94.018 Y102.848 E22.60996
G1 X94.111 Y102.499 E22.62197
G1 X94.154 Y102.18 E22.63267
G1 X94.154 Y101.818 E22.64471
G1 X94.103 Y101.461 E22.65671
G1 X94.018 Y101.152 E22.66737
G1 X93.878 Y100.821 E22.67932
G1 X93.712 Y100.542 E22.69012
G1 X93.434 Y100.198 E22.70483
G1 X93.196 Y99.98 E22.71556
G1 X92.938 Y99.794 E22.72614
G1 X92.655 Y99.641 E22.73684
G1 X92.322 Y99.513 E22.74871
G1 X92.009 Y99.438 E22.75941
G1 X91.699 Y99.403 E22.76979
G1 X91.507 Y99.4 E22.77618
G1 X91.154 Y99.431 E22.78796
G1 X90.797 Y99.512 E22.80014
G1 X90.461 Y99.641 E22.81211
G1 X90.18 Y99.794 E22.82275
G1 X90.017 Y99.911 E22.82942
G1 X89.921 Y99.98 E22.83336
G1 X89.688 Y100.194 E22.84388
G1 X89.645 Y100.244 E22.84607
G1 X89.645 Y100.194
G1 X89.645 Y99.98 E22.84833
G1 X89.645 Y99.861 E22.85175
G1 X89.645 Y98.6 E22.89369
G1 X131.426 Y98.6 E24.28333
G1 X131.426 Y100.284 E24.33934
G1 X131.426 Y100.47 E24.34552
G1 X131.426 Y100.779 E24.3558
G1 X131.426 Y100.937 E24.36106
G1 X131.356 Y100.779 E24.36188
G1 X131.163 Y100.47 E24.36772
G1 X131.043 Y100.328 E24.37291
G1 X130.931 Y100.195 E24.3787
G1 X130.696 Y99.98 E24.38929
G1 X130.438 Y99.794 E24.39987
G1 X130.156 Y99.642 E24.41052
G1 X129.861 Y99.526 E24.42107
G1 X129.51 Y99.438 E24.4331
G1 X129.158 Y99.401 E24.44487
G1 X128.961 Y99.4 E24.45143
G1 X128.567 Y99.446 E24.46462
G1 X128.255 Y99.526 E24.47533
G1 X127.956 Y99.644 E24.48602
G1 X127.64 Y99.821 E24.49807
G1 X127.287 Y100.095 E24.51293
G1 X126.983 Y100.432 E24.52803
G1 X126.783 Y100.739 E24.54022
G1 X126.63 Y101.069 E24.55231
G1 X126.514 Y101.455 E24.56572
G1 X126.468 Y101.775 E24.57647
G1 X126.459 Y102.137 E24.58852
G1 X126.513 Y102.542 E24.60211
G1 X126.643 Y102.967 E24.61689
G1 X126.784 Y103.264 E24.62782
G1 X126.981 Y103.566 E24.63982
G1 X127.217 Y103.837 E24.65177
G1 X127.459 Y104.051 E24.66251
G1 X127.757 Y104.251 E24.67445
G1 X128.043 Y104.395 E24.6851
G1 X128.346 Y104.502 E24.69579
G1 X128.783 Y104.586 E24.71059
G1 X129.149 Y104.601 E24.72277
G1 X129.552 Y104.554 E24.73627
G1 X129.904 Y104.461 E24.74837
G1 X130.204 Y104.336 E24.75918
G1 X130.582 Y104.109 E24.77385
G1 X130.833 Y103.902 E24.78467
G1 X131.031 Y103.693 E24.79425
G1 X131.052 Y103.671 E24.79526
G1 X131.265 Y103.378 E24.80731
G1 X131.426 Y103.074 E24.81875
G1 X131.426 Y103.378 E24.82052
G1 X131.426 Y103.671 E24.82685
G1 X131.426 Y103.702 E24.82785
G1 X131.426 Y116.298 E25.2468
G1 X131.426 Y116.329 E25.24783
G1 X131.426 Y116.623 E25.25761
G1 X131.426 Y116.924 E25.26762
G1 X131.266 Y116.623 E25.27067
G1 X131.052 Y116.329 E25.27932
G1 X131.031 Y116.307 E25.2803
G1 X130.832 Y116.096 E25.28994
G1 X130.585 Y115.895 E25.30054
G1 X130.283 Y115.705 E25.3124
G1 X129.989 Y115.571 E25.32315
G1 X129.646 Y115.466 E25.33508
G1 X129.33 Y115.413 E25.34574
G1 X128.968 Y115.399 E25.35779
G1 X128.567 Y115.446 E25.37121
G1 X128.255 Y115.526 E25.38193
G1 X127.956 Y115.644 E25.39262
G1 X127.64 Y115.821 E25.40467
G1 X127.287 Y116.095 E25.41953
G1 X126.983 Y116.432 E25.43462
G1 X126.783 Y116.739 E25.44681
G1 X126.63 Y117.069 E25.45891
G1 X126.514 Y117.455 E25.47231
G1 X126.468 Y117.776 E25.4831
G1 X126.46 Y118.139 E25.49518
G1 X126.522 Y118.582 E25.51005
G1 X126.644 Y118.969 E25.52355
G1 X126.784 Y119.264 E25.53441
G1 X126.981 Y119.566 E25.5464
G1 X127.217 Y119.837 E25.55836
G1 X127.459 Y120.051 E25.5691
G1 X127.757 Y120.251 E25.58104
G1 X128.043 Y120.395 E25.59169
G1 X128.346 Y120.502 E25.60237
G1 X128.783 Y120.586 E25.61718
G0 F13200 X128.829 Y120.188
;TYPE:WALL-OUTER
G1 F3000 X129.134 Y120.2 E25.62733
G1 X129.477 Y120.16 E25.63881
G1 X129.775 Y120.081 E25.64907
G1 X130.023 Y119.978 E25.658
G1 X130.351 Y119.781 E25.67072
G1 X130.56 Y119.609 E25.67973
G1 X130.744 Y119.415 E25.68862
G1 X130.925 Y119.166 E25.69886
G1 X131.068 Y118.895 E25.70905
G1 X131.185 Y118.569 E25.72057
G1 X131.242 Y118.269 E25.73073
G1 X131.259 Y117.965 E25.74085
G1 X131.238 Y117.695 E25.74986
G1 X131.174 Y117.395 E25.76006
G1 X131.07 Y117.107 E25.77025
G1 X130.926 Y116.835 E25.78048
G1 X130.744 Y116.585 E25.79077
G1 X130.559 Y116.39 E25.79971
G1 X130.351 Y116.22 E25.80864
G1 X130.093 Y116.058 E25.81878
G1 X129.847 Y115.946 E25.82777
G1 X129.554 Y115.856 E25.83796
