;FLAVOR:Marlin
;TIME:707
;Filament used: 0.393229m
;Layer height: 0.2
;MINX:86.433
;MINY:89.551
;MINZ:0.3
;MAXX:133.855
;MAXY:131.527
;MAXZ:7.1
;Generated with Cura_SteamEngine 4.11.0
M140 S45
M105
M190 S45
M104 S205
M105
M109 S205
M82 ;absolute extrusion mode
; Ender 3 Custom Start G-code
G92 E0 ; Reset Extruder
G28 ; Home all axes
G1 Z2.0 F3000 ; Move Z Axis up little to prevent scratching of Heat Bed
G1 X0.1 Y20 Z0.3 F5000.0 ; Move to start position
G1 X0.1 Y200.0 Z0.3 F1500.0 E15 ; Draw the first line
G1 X0.4 Y200.0 Z0.3 F5000.0 ; Move to side a little
G1 X0.4 Y20 Z0.3 F1500.0 E30 ; Draw the second line
G92 E0 ; Reset Extruder
G1 Z2.0 F3000 ; Move Z Axis up little to prevent scratching of Heat Bed
G1 X5 Y20 Z0.3 F5000.0 ; Move over to prevent blob squish
G92 E0
G92 E0
G1 F1200 E-3.5
;LAYER_COUNT:35
;LAYER:0
M107
G0 F13200 X90.853 Y98.783 Z0.3
;TYPE:SKIRT
G1 F1200 E0
G1 F2100 X91.559 Y98.166 E0.04678
G1 X91.964 Y97.856 E0.07222
G1 X92.709 Y97.313 E0.11822
G1 X92.95 Y97.142 E0.13296
G1 X93.812 Y96.549 E0.18516
G1 X95.869 Y95.045 E0.31229
G1 X97.042 Y94.146 E0.38602
G1 X97.473 Y93.811 E0.41325
G1 X97.759 Y93.597 E0.43107
G1 X98.12 Y93.335 E0.45333
G1 X98.479 Y93.084 E0.47518
G1 X98.725 Y92.92 E0.48993
G1 X99.14 Y92.657 E0.51444
G1 X99.46 Y92.467 E0.53301
G1 X99.79 Y92.279 E0.55196
G1 X100.088 Y92.115 E0.56893
G1 X100.598 Y91.845 E0.59772
G1 X101.098 Y91.597 E0.62556
G1 X101.319 Y91.494 E0.63773
G1 X101.676 Y91.335 E0.65723
G1 X102.134 Y91.141 E0.68204
G1 X102.486 Y90.999 E0.70098
G1 X102.932 Y90.828 E0.72481
G1 X103.275 Y90.703 E0.74302
G1 X103.515 Y90.62 E0.75569
G1 X104.251 Y90.394 E0.7941
G1 X104.905 Y90.218 E0.82789
G1 X105.297 Y90.12 E0.84805
G1 X105.801 Y90.004 E0.87385
G1 X106.416 Y89.881 E0.90514
G1 X106.861 Y89.805 E0.92766
G1 X107.416 Y89.725 E0.95564
G1 X107.913 Y89.666 E0.98061
G1 X108.481 Y89.613 E1.00907
G1 X108.797 Y89.592 E1.02487
G1 X109.146 Y89.575 E1.0423
G1 X109.638 Y89.558 E1.06686
G1 X110.018 Y89.551 E1.08582
G1 X110.169 Y89.551 E1.09336
G1 X110.538 Y89.557 E1.11177
G1 X111.164 Y89.578 E1.14302
G1 X111.557 Y89.598 E1.16265
G1 X111.701 Y89.608 E1.16985
G1 X112.071 Y89.64 E1.18838
G1 X112.477 Y89.682 E1.20874
G1 X112.877 Y89.731 E1.22885
G1 X113.257 Y89.784 E1.24799
G1 X115.817 Y90.106 E1.37672
G1 X118.55 Y90.371 E1.51371
G1 X119.164 Y90.433 E1.54449
G1 X119.61 Y90.487 E1.56691
G1 X119.975 Y90.539 E1.5853
G1 X121.101 Y90.76 E1.64255
G1 X121.376 Y90.829 E1.65669
G1 X122.271 Y91.094 E1.70326
G1 X122.472 Y91.163 E1.71387
G1 X123.209 Y91.446 E1.75325
G1 X123.411 Y91.532 E1.7642
G1 X124.262 Y91.938 E1.81125
G1 X124.471 Y92.049 E1.82305
G1 X125.16 Y92.448 E1.86277
G1 X125.203 Y92.475 E1.86531
G1 X125.763 Y92.851 E1.89896
G1 X126.148 Y93.127 E1.92259
G1 X127.157 Y93.945 E1.9874
G1 X127.33 Y94.103 E1.99909
G1 X128.074 Y94.851 E2.05172
G1 X128.28 Y95.079 E2.06705
G1 X128.748 Y95.632 E2.10319
G1 X128.797 Y95.694 E2.10714
G1 X129.186 Y96.218 E2.13969
G1 X129.304 Y96.387 E2.14998
G1 X129.706 Y97.006 E2.1868
G1 X129.888 Y97.308 E2.20439
G1 X130.414 Y98.29 E2.25997
G1 X130.507 Y98.487 E2.27084
G1 X130.809 Y99.188 E2.30892
G1 X130.878 Y99.365 E2.3184
G1 X131.297 Y100.679 E2.3872
G1 X131.687 Y102.231 E2.46704
G1 X131.739 Y102.445 E2.47803
G1 X131.816 Y102.778 E2.49508
G1 X132.448 Y105.217 E2.62078
G1 X132.748 Y106.258 E2.67483
G1 X133.379 Y108.476 E2.78988
G1 X133.636 Y109.599 E2.84735
G1 X133.675 Y109.823 E2.8587
G1 X133.801 Y110.805 E2.90809
G1 X133.819 Y111.023 E2.919
G1 X133.852 Y111.623 E2.94898
G1 X133.855 Y111.731 E2.95437
G1 X133.835 Y112.757 E3.00557
G1 X133.812 Y113.107 E3.02307
G1 X133.776 Y113.535 E3.0445
G1 X133.751 Y113.773 E3.05644
G1 X133.597 Y114.781 E3.10731
G1 X133.574 Y114.896 E3.11316
G1 X133.382 Y115.699 E3.15435
G1 X133.306 Y115.971 E3.16844
G1 X132.969 Y116.984 E3.2217
G1 X132.859 Y117.268 E3.2369
G1 X132.529 Y118.033 E3.27846
G1 X132.226 Y118.628 E3.31178
G1 X132.073 Y118.907 E3.32765
G1 X131.587 Y119.71 E3.37448
G1 X131.436 Y119.937 E3.38808
G1 X131.155 Y120.339 E3.41255
G1 X130.41 Y121.262 E3.47173
G1 X130.119 Y121.585 E3.49342
G1 X129.488 Y122.231 E3.53847
G1 X129.334 Y122.376 E3.54902
G1 X128.589 Y123.017 E3.59806
G1 X128.421 Y123.149 E3.60872
G1 X128.13 Y123.369 E3.62692
G1 X127.816 Y123.596 E3.64625
G1 X127.335 Y123.933 E3.67555
G1 X127.106 Y124.105 E3.68984
G1 X125.938 Y124.924 E3.761
G1 X123.328 Y126.881 E3.92376
G1 X123.049 Y127.098 E3.94139
G1 X122.848 Y127.251 E3.95399
G1 X122.424 Y127.565 E3.98032
G1 X122.021 Y127.849 E4.00491
G1 X121.773 Y128.016 E4.01983
G1 X121.268 Y128.337 E4.04968
G1 X120.511 Y128.789 E4.09367
G1 X119.831 Y129.163 E4.13239
G1 X119.635 Y129.262 E4.14334
G1 X119.32 Y129.415 E4.16081
G1 X118.955 Y129.585 E4.1809
G1 X118.591 Y129.746 E4.20076
G1 X117.812 Y130.075 E4.24295
G1 X117.146 Y130.331 E4.27854
G1 X116.87 Y130.427 E4.29312
G1 X116.1 Y130.664 E4.33332
G1 X115.252 Y130.891 E4.37711
G1 X114.809 Y131 E4.39987
G1 X114.657 Y131.034 E4.40764
G1 X114.341 Y131.1 E4.42375
G1 X113.797 Y131.205 E4.45139
G1 X113.174 Y131.306 E4.48288
G1 X112.637 Y131.378 E4.50991
G1 X112.089 Y131.438 E4.53741
G1 X111.873 Y131.456 E4.54823
G1 X111.542 Y131.479 E4.56478
G1 X111.052 Y131.505 E4.58926
G1 X110.666 Y131.518 E4.60853
G1 X110.219 Y131.526 E4.63083
G1 X109.863 Y131.527 E4.64859
G1 X109.725 Y131.525 E4.65548
G1 X109.092 Y131.497 E4.68709
G1 X108.109 Y131.426 E4.73626
G1 X107.544 Y131.371 E4.76458
G1 X107.19 Y131.326 E4.78239
G1 X106.939 Y131.291 E4.79503
G1 X104.391 Y130.965 E4.92319
G1 X101.813 Y130.709 E5.05244
G1 X101.642 Y130.694 E5.061
G1 X100.91 Y130.62 E5.09771
G1 X99.977 Y130.485 E5.14474
G1 X99.765 Y130.445 E5.1555
G1 X99.057 Y130.288 E5.19168
G1 X98.898 Y130.247 E5.19987
G1 X98.134 Y130.019 E5.23965
G1 X97.944 Y129.955 E5.24965
G1 X97.198 Y129.674 E5.28942
G1 X96.924 Y129.559 E5.30425
G1 X96.075 Y129.159 E5.35107
G1 X95.643 Y128.92 E5.3757
G1 X95.238 Y128.684 E5.39909
G1 X94.168 Y127.974 E5.46315
G1 X93.983 Y127.835 E5.4747
G1 X93.156 Y127.148 E5.52834
G1 X92.987 Y126.993 E5.53978
G1 X92.29 Y126.294 E5.58903
G1 X91.973 Y125.946 E5.61251
G1 X91.098 Y124.853 E5.68236
G1 X90.969 Y124.669 E5.69357
G1 X90.477 Y123.901 E5.73908
G1 X90.31 Y123.615 E5.7556
G1 X89.872 Y122.785 E5.80242
G1 X89.644 Y122.272 E5.83043
G1 X89.474 Y121.861 E5.85262
G1 X89.069 Y120.703 E5.91382
G1 X89.018 Y120.526 E5.92301
G1 X88.926 Y120.185 E5.94063
G1 X88.792 Y119.648 E5.96825
G1 X88.392 Y117.937 E6.05591
G1 X87.744 Y115.487 E6.18234
G1 X87.118 Y113.385 E6.29176
G1 X86.996 Y112.961 E6.31378
G1 X86.923 Y112.694 E6.32759
G1 X86.862 Y112.46 E6.33965
G1 X86.713 Y111.811 E6.37287
G1 X86.674 Y111.613 E6.38294
G1 X86.554 Y110.868 E6.42059
G1 X86.524 Y110.631 E6.4325
G1 X86.444 Y109.636 E6.48231
G1 X86.433 Y109.323 E6.49793
G1 X86.439 Y108.401 E6.54393
G1 X86.447 Y108.237 E6.55212
G1 X86.517 Y107.426 E6.59273
G1 X86.555 Y107.118 E6.60822
G1 X86.751 Y106.003 E6.6647
G1 X86.813 Y105.733 E6.67852
G1 X87.13 Y104.622 E6.73616
G1 X87.232 Y104.325 E6.75182
G1 X87.485 Y103.66 E6.78732
G1 X87.571 Y103.454 E6.79846
G1 X87.969 Y102.605 E6.84524
G1 X88.233 Y102.127 E6.87248
G1 X88.467 Y101.728 E6.89556
G1 X89.146 Y100.706 E6.95677
G1 X89.303 Y100.496 E6.96986
G1 X90.03 Y99.622 E7.02657
G1 X90.21 Y99.427 E7.03981
G1 X90.703 Y98.926 E7.07488
G1 X90.853 Y98.783 E7.08522
G0 F13200 X91.129 Y99.073
G1 F2100 X91.822 Y98.467 E7.13115
G1 X92.199 Y98.179 E7.15482
G1 X92.944 Y97.636 E7.20081
G1 X93.177 Y97.471 E7.21505
G1 X94.052 Y96.869 E7.26804
G1 X96.133 Y95.347 E7.39667
G1 X97.23 Y94.506 E7.46563
G1 X97.718 Y94.127 E7.49646
G1 X97.994 Y93.92 E7.51367
G1 X98.355 Y93.658 E7.53592
G1 X98.701 Y93.417 E7.55696
G1 X98.947 Y93.253 E7.57171
G1 X99.35 Y92.997 E7.59553
G1 X99.658 Y92.815 E7.61338
G1 X99.988 Y92.627 E7.63232
G1 X100.275 Y92.469 E7.64867
G1 X100.785 Y92.199 E7.67746
G1 X101.267 Y91.959 E7.70432
G1 X101.488 Y91.856 E7.71649
G1 X101.832 Y91.704 E7.73525
G1 X102.29 Y91.51 E7.76006
G1 X102.629 Y91.373 E7.77831
G1 X103.075 Y91.202 E7.80214
G1 X103.405 Y91.081 E7.81967
G1 X103.645 Y90.998 E7.83234
G1 X104.355 Y90.78 E7.8694
G1 X105.009 Y90.604 E7.90318
G1 X105.386 Y90.51 E7.92257
G1 X105.89 Y90.394 E7.94837
G1 X106.484 Y90.275 E7.97859
G1 X106.929 Y90.199 E8.00112
G1 X107.463 Y90.122 E8.02803
G1 X107.96 Y90.063 E8.053
G1 X108.507 Y90.012 E8.08041
G1 X108.823 Y89.991 E8.09621
G1 X109.16 Y89.974 E8.11305
G1 X109.652 Y89.957 E8.13761
G1 X110.018 Y89.951 E8.15587
G1 X110.169 Y89.951 E8.1634
G1 X110.524 Y89.957 E8.18112
G1 X111.15 Y89.978 E8.21237
G1 X111.529 Y89.997 E8.2313
G1 X111.673 Y90.007 E8.2385
G1 X112.03 Y90.038 E8.25638
G1 X112.436 Y90.08 E8.27674
G1 X112.821 Y90.127 E8.29609
G1 X113.218 Y90.183 E8.31609
G1 X115.761 Y90.503 E8.44396
G1 X118.51 Y90.769 E8.58175
G1 X119.124 Y90.831 E8.61254
G1 X119.554 Y90.883 E8.63415
G1 X119.919 Y90.935 E8.65254
G1 X121.004 Y91.148 E8.70771
G1 X121.279 Y91.217 E8.72185
G1 X122.141 Y91.472 E8.7667
G1 X122.342 Y91.541 E8.7773
G1 X123.052 Y91.814 E8.81525
G1 X123.254 Y91.9 E8.82621
G1 X124.074 Y92.291 E8.87153
G1 X124.283 Y92.402 E8.88334
G1 X124.948 Y92.787 E8.92167
G1 X124.991 Y92.814 E8.92421
G1 X125.53 Y93.176 E8.9566
G1 X125.915 Y93.452 E8.98023
G1 X126.887 Y94.24 E9.04266
G1 X127.06 Y94.398 E9.05435
G1 X127.777 Y95.119 E9.10508
G1 X127.983 Y95.347 E9.12041
G1 X128.434 Y95.88 E9.15524
G1 X128.483 Y95.942 E9.15918
G1 X128.858 Y96.447 E9.19056
G1 X128.976 Y96.616 E9.20085
G1 X129.364 Y97.213 E9.23637
G1 X129.546 Y97.515 E9.25396
G1 X130.053 Y98.461 E9.30751
G1 X130.146 Y98.658 E9.31838
G1 X130.436 Y99.333 E9.35503
G1 X130.505 Y99.51 E9.36451
G1 X130.909 Y100.777 E9.43085
G1 X131.299 Y102.329 E9.51069
G1 X131.349 Y102.535 E9.52127
G1 X131.422 Y102.854 E9.53759
G1 X132.071 Y105.357 E9.6666
G1 X132.363 Y106.367 E9.71905
G1 X132.994 Y108.585 E9.8341
G1 X133.242 Y109.668 E9.88953
G1 X133.281 Y109.892 E9.90087
G1 X133.402 Y110.838 E9.94845
G1 X133.42 Y111.056 E9.95936
G1 X133.452 Y111.634 E9.98824
G1 X133.455 Y111.742 E9.99364
G1 X133.436 Y112.731 E10.04299
G1 X133.413 Y113.081 E10.06048
G1 X133.378 Y113.493 E10.08111
G1 X133.353 Y113.731 E10.09305
G1 X133.205 Y114.703 E10.14211
G1 X133.182 Y114.818 E10.14796
G1 X132.997 Y115.592 E10.18766
G1 X132.921 Y115.864 E10.20175
G1 X132.596 Y116.839 E10.25302
G1 X132.486 Y117.123 E10.26822
G1 X132.168 Y117.861 E10.30831
G1 X131.875 Y118.436 E10.34051
G1 X131.722 Y118.715 E10.35638
G1 X131.254 Y119.489 E10.40151
G1 X131.103 Y119.716 E10.41511
G1 X130.831 Y120.105 E10.43879
G1 X130.113 Y120.994 E10.4958
G1 X129.822 Y121.317 E10.51749
G1 X129.213 Y121.939 E10.56092
G1 X129.059 Y122.084 E10.57147
G1 X128.342 Y122.702 E10.6187
G1 X128.174 Y122.834 E10.62936
G1 X127.893 Y123.047 E10.64695
G1 X127.587 Y123.269 E10.66581
G1 X126.985 Y123.691 E10.70249
G1 X126.876 Y123.778 E10.70944
G1 X125.698 Y124.604 E10.78122
G1 X123.093 Y126.558 E10.94369
G1 X122.804 Y126.782 E10.96193
G1 X122.609 Y126.929 E10.97411
G1 X122.185 Y127.243 E11.00043
G1 X121.798 Y127.517 E11.02409
G1 X121.55 Y127.684 E11.03901
G1 X121.063 Y127.993 E11.06778
G1 X120.306 Y128.445 E11.11177
G1 X119.651 Y128.806 E11.14908
G1 X119.455 Y128.905 E11.16004
G1 X119.151 Y129.052 E11.17688
G1 X118.786 Y129.222 E11.19697
G1 X118.435 Y129.378 E11.21613
G1 X117.656 Y129.707 E11.25832
G1 X117.014 Y129.954 E11.29264
G1 X116.738 Y130.05 E11.30722
G1 X115.997 Y130.277 E11.34588
G1 X115.149 Y130.504 E11.38968
G1 X114.722 Y130.609 E11.41162
G1 X114.265 Y130.707 E11.43494
G1 X113.721 Y130.812 E11.46258
G1 X113.121 Y130.91 E11.49291
G1 X112.584 Y130.982 E11.51994
G1 X112.055 Y131.039 E11.54648
G1 X111.839 Y131.057 E11.5573
G1 X111.521 Y131.079 E11.5732
G1 X111.031 Y131.105 E11.59768
G1 X110.659 Y131.118 E11.61625
G1 X110.212 Y131.126 E11.63856
G1 X109.868 Y131.127 E11.65572
G1 X109.73 Y131.125 E11.6626
G1 X109.12 Y131.098 E11.69307
G1 X108.137 Y131.027 E11.74224
G1 X107.594 Y130.974 E11.76946
G1 X107.246 Y130.929 E11.78696
G1 X107.055 Y130.902 E11.79659
G1 X104.44 Y130.567 E11.92812
G1 X101.925 Y130.318 E12.0542
G1 X101.682 Y130.296 E12.06638
G1 X100.95 Y130.222 E12.10308
G1 X100.051 Y130.092 E12.1484
G1 X99.839 Y130.052 E12.15916
G1 X99.157 Y129.9 E12.19402
G1 X98.998 Y129.859 E12.20221
G1 X98.261 Y129.64 E12.24057
G1 X98.071 Y129.576 E12.25057
G1 X97.353 Y129.305 E12.28886
G1 X97.079 Y129.19 E12.30369
G1 X95.844 Y128.575 E12.37252
G1 X95.439 Y128.339 E12.3959
G1 X94.409 Y127.654 E12.45762
G1 X94.224 Y127.515 E12.46916
G1 X93.426 Y126.853 E12.52089
G1 X93.257 Y126.698 E12.53233
G1 X92.586 Y126.024 E12.57978
G1 X92.269 Y125.676 E12.60327
G1 X91.426 Y124.623 E12.67056
G1 X91.297 Y124.439 E12.68177
G1 X90.822 Y123.699 E12.72564
G1 X90.655 Y123.413 E12.74216
G1 X90.226 Y122.599 E12.78807
G1 X90.014 Y122.12 E12.8142
G1 X89.844 Y121.709 E12.83639
G1 X89.453 Y120.592 E12.89544
G1 X89.402 Y120.415 E12.90463
G1 X89.313 Y120.087 E12.92158
G1 X89.227 Y119.748 E12.93903
G1 X88.773 Y117.816 E13.03804
G1 X88.134 Y115.398 E13.16282
G1 X87.502 Y113.274 E13.27338
G1 X87.38 Y112.85 E13.29539
G1 X87.249 Y112.359 E13.32074
G1 X87.106 Y111.734 E13.35273
G1 X87.067 Y111.536 E13.3628
G1 X86.951 Y110.818 E13.39908
G1 X86.921 Y110.581 E13.411
G1 X86.844 Y109.622 E13.459
G1 X86.833 Y109.309 E13.47463
G1 X86.839 Y108.421 E13.51893
G1 X86.847 Y108.257 E13.52712
G1 X86.914 Y107.475 E13.56628
G1 X86.952 Y107.167 E13.58176
G1 X87.141 Y106.093 E13.63617
G1 X87.203 Y105.823 E13.64999
G1 X87.509 Y104.752 E13.70556
G1 X87.611 Y104.455 E13.72122
G1 X87.854 Y103.814 E13.75542
G1 X87.94 Y103.608 E13.76656
G1 X88.331 Y102.775 E13.81247
G1 X88.578 Y102.33 E13.83786
G1 X88.812 Y101.931 E13.86094
G1 X89.466 Y100.946 E13.91993
G1 X89.623 Y100.736 E13.93301
G1 X90.324 Y99.893 E13.98771
G1 X90.504 Y99.698 E14.00095
G1 X90.979 Y99.216 E14.03471
G1 X91.129 Y99.073 E14.04505
G0 F13200 X91.405 Y99.362
G1 F2100 X92.435 Y98.502 E14.11199
G1 X93.18 Y97.959 E14.15798
G1 X93.404 Y97.8 E14.17169
G1 X94.293 Y97.188 E14.22554
G1 X96.333 Y95.697 E14.3516
G1 X97.528 Y94.781 E14.42672
G1 X97.964 Y94.443 E14.45424
G1 X98.229 Y94.244 E14.47077
G1 X98.59 Y93.982 E14.49303
G1 X98.923 Y93.75 E14.51327
G1 X99.169 Y93.586 E14.52802
G1 X99.559 Y93.338 E14.55108
G1 X99.856 Y93.162 E14.56831
G1 X100.186 Y92.974 E14.58725
G1 X100.463 Y92.822 E14.60302
G1 X100.973 Y92.552 E14.63181
G1 X101.436 Y92.322 E14.6576
G1 X101.657 Y92.219 E14.66976
G1 X101.988 Y92.072 E14.68783
G1 X102.446 Y91.878 E14.71265
G1 X102.772 Y91.746 E14.7302
G1 X103.218 Y91.575 E14.75403
G1 X103.536 Y91.459 E14.77091
G1 X103.776 Y91.376 E14.78358
G1 X104.459 Y91.166 E14.81923
G1 X105.113 Y90.99 E14.85302
G1 X105.476 Y90.9 E14.87168
G1 X105.98 Y90.784 E14.89748
G1 X106.551 Y90.67 E14.92653
G1 X106.996 Y90.594 E14.94905
G1 X107.511 Y90.519 E14.97502
G1 X108.008 Y90.46 E14.99999
G1 X108.534 Y90.411 E15.02634
G1 X108.85 Y90.39 E15.04214
G1 X109.174 Y90.374 E15.05833
G1 X109.666 Y90.357 E15.08289
G1 X110.018 Y90.351 E15.10045
G1 X110.169 Y90.351 E15.10799
G1 X110.511 Y90.357 E15.12505
G1 X111.137 Y90.378 E15.1563
G1 X111.502 Y90.397 E15.17453
G1 X111.646 Y90.407 E15.18174
G1 X111.989 Y90.436 E15.19891
G1 X112.395 Y90.478 E15.21927
G1 X112.765 Y90.523 E15.23787
G1 X113.178 Y90.581 E15.25868
G1 X115.709 Y90.899 E15.38594
G1 X118.47 Y91.167 E15.52433
G1 X119.084 Y91.229 E15.55512
G1 X119.498 Y91.279 E15.57593
G1 X119.863 Y91.331 E15.59432
G1 X120.906 Y91.536 E15.64735
G1 X121.181 Y91.605 E15.6615
G1 X122.011 Y91.851 E15.70469
G1 X122.212 Y91.92 E15.71529
G1 X122.896 Y92.182 E15.75183
G1 X123.098 Y92.268 E15.76278
G1 X123.886 Y92.645 E15.80637
G1 X124.095 Y92.756 E15.81817
G1 X124.735 Y93.126 E15.85505
G1 X125.297 Y93.501 E15.88876
G1 X125.682 Y93.777 E15.91239
