;FLAVOR:Marlin
;TIME:1899
;Filament used: 1.01661m
;Layer height: 0.2
;MINX:73.342
;MINY:95.428
;MINZ:0.3
;MAXX:142.814
;MAXY:154.613
;MAXZ:7.9
;Generated with Cura_SteamEngine 4.11.0
M140 S45
M105
M190 S45
M104 S205
M105
M109 S205
M82 ;absolute extrusion mode
; Ender 3 Custom Start G-code
G92 E0 ; Reset Extruder
G28 ; Home all axes
G1 Z2.0 F3000 ; Move Z Axis up little to prevent scratching of Heat Bed
G1 X0.1 Y20 Z0.3 F5000.0 ; Move to start position
G1 X0.1 Y200.0 Z0.3 F1500.0 E15 ; Draw the first line
G1 X0.4 Y200.0 Z0.3 F5000.0 ; Move to side a little
G1 X0.4 Y20 Z0.3 F1500.0 E30 ; Draw the second line
G92 E0 ; Reset Extruder
G1 Z2.0 F3000 ; Move Z Axis up little to prevent scratching of Heat Bed
G1 X5 Y20 Z0.3 F5000.0 ; Move over to prevent blob squish
G92 E0
G92 E0
G1 F1200 E-3.5
;LAYER_COUNT:40
;LAYER:0
M107
G0 F13200 X77.228 Y98.055 Z0.3
;TYPE:SKIRT
G1 F1200 E0
G1 F2100 X77.968 Y97.479 E0.04678
G1 X78.754 Y96.967 E0.09358
G1 X79.581 Y96.525 E0.14037
G1 X80.443 Y96.155 E0.18717
G1 X81.333 Y95.859 E0.23396
G1 X82.245 Y95.641 E0.28074
G1 X83.172 Y95.5 E0.32752
G1 X84.043 Y95.441 E0.37108
G1 X84.364 Y95.432 E0.3871
G1 X84.672 Y95.428 E0.40246
G1 X114.635 Y95.428 E1.89732
G1 X115.494 Y95.439 E1.94018
G1 X116.431 Y95.492 E1.98701
G1 X117.359 Y95.625 E2.03378
G1 X118.273 Y95.837 E2.08059
G1 X119.165 Y96.125 E2.12735
G1 X120.03 Y96.489 E2.17417
G1 X120.86 Y96.925 E2.22095
G1 X121.619 Y97.408 E2.26583
G1 X122.151 Y97.779 E2.29819
G1 X123.517 Y98.758 E2.38203
G1 X125.617 Y100.176 E2.50845
G1 X127.743 Y101.525 E2.63407
G1 X129.882 Y102.798 E2.75825
G1 X132.087 Y104.028 E2.88422
G1 X134.347 Y105.208 E3.01141
G1 X136.534 Y106.271 E3.13273
G1 X136.869 Y106.441 E3.15147
G1 X137.683 Y106.908 E3.19829
G1 X138.454 Y107.442 E3.24508
G1 X139.176 Y108.04 E3.29185
G1 X139.845 Y108.698 E3.33867
G1 X140.455 Y109.41 E3.38544
G1 X141.003 Y110.171 E3.43223
G1 X141.483 Y110.976 E3.47899
G1 X141.894 Y111.82 E3.52582
G1 X142.231 Y112.695 E3.5726
G1 X142.492 Y113.596 E3.6194
G1 X142.675 Y114.516 E3.6662
G1 X142.801 Y115.887 E3.73489
G1 X142.81 Y116.197 E3.75036
G1 X142.814 Y116.678 E3.77436
G1 X142.804 Y117.358 E3.80829
G1 X142.795 Y117.665 E3.82361
G1 X142.762 Y118.411 E3.86086
G1 X142.68 Y119.84 E3.93227
G1 X142.608 Y122.33 E4.05655
G1 X142.606 Y124.82 E4.18078
G1 X142.735 Y128.629 E4.37092
G1 X142.773 Y129.336 E4.40624
G1 X142.787 Y129.703 E4.42457
G1 X142.807 Y130.683 E4.47347
G1 X142.808 Y131.061 E4.49233
G1 X142.804 Y131.347 E4.5066
G1 X142.751 Y132.283 E4.55337
G1 X142.618 Y133.212 E4.60019
G1 X142.407 Y134.125 E4.64694
G1 X142.119 Y135.018 E4.69375
G1 X141.755 Y135.883 E4.74057
G1 X141.32 Y136.713 E4.78732
G1 X140.815 Y137.503 E4.8341
G1 X140.245 Y138.248 E4.8809
G1 X139.613 Y138.941 E4.92769
G1 X138.925 Y139.578 E4.97447
G1 X138.184 Y140.154 E5.02129
G1 X137.708 Y140.475 E5.04994
G1 X136.563 Y141.203 E5.11763
G1 X134.432 Y142.602 E5.24481
G1 X132.338 Y144.064 E5.37222
G1 X130.334 Y145.547 E5.4966
G1 X128.357 Y147.099 E5.622
G1 X126.409 Y148.72 E5.74843
G1 X124.527 Y150.38 E5.87363
G1 X123.585 Y151.255 E5.93777
G1 X123.056 Y151.734 E5.97338
G1 X122.407 Y152.278 E6.01563
G1 X122.376 Y152.302 E6.01758
G1 X121.611 Y152.844 E6.06436
G1 X120.802 Y153.319 E6.11116
G1 X119.955 Y153.723 E6.15798
G1 X119.078 Y154.054 E6.20474
G1 X118.175 Y154.308 E6.25154
G1 X117.254 Y154.485 E6.29833
G1 X115.95 Y154.6 E6.36364
G1 X115.629 Y154.609 E6.37966
G1 X115.321 Y154.613 E6.39503
G1 X85.216 Y154.612 E7.89697
G1 X84.518 Y154.603 E7.9318
G1 X83.582 Y154.551 E7.97857
G1 X82.653 Y154.419 E8.02538
G1 X81.739 Y154.209 E8.07217
G1 X80.846 Y153.922 E8.11897
G1 X79.981 Y153.559 E8.16577
G1 X79.15 Y153.125 E8.21254
G1 X78.359 Y152.621 E8.25933
G1 X77.614 Y152.051 E8.30613
G1 X76.92 Y151.42 E8.35293
G1 X76.283 Y150.733 E8.39967
G1 X75.706 Y149.993 E8.44649
G1 X75.194 Y149.207 E8.49328
G1 X74.751 Y148.38 E8.54009
G1 X74.38 Y147.519 E8.58686
G1 X74.084 Y146.629 E8.63366
G1 X73.865 Y145.717 E8.68045
G1 X73.724 Y144.79 E8.72723
G1 X73.664 Y143.901 E8.77168
G1 X73.655 Y143.568 E8.7883
G1 X73.651 Y143.271 E8.80312
G1 X73.651 Y129.282 E9.50104
G1 X73.614 Y126.674 E9.63116
G1 X73.508 Y124.168 E9.7563
G1 X73.422 Y122.95 E9.81722
G1 X73.37 Y122.058 E9.8618
G1 X73.355 Y121.727 E9.87833
G1 X73.346 Y121.407 E9.8943
G1 X73.342 Y121.098 E9.90971
G1 X73.343 Y106.953 E10.61541
G1 X73.352 Y106.288 E10.64859
G1 X73.405 Y105.352 E10.69536
G1 X73.537 Y104.423 E10.74218
G1 X73.748 Y103.509 E10.78898
G1 X74.036 Y102.617 E10.83574
G1 X74.399 Y101.752 E10.88254
G1 X74.834 Y100.921 E10.92934
G1 X75.338 Y100.131 E10.97609
G1 X75.908 Y99.386 E11.02289
G1 X76.54 Y98.692 E11.06972
G1 X77.228 Y98.055 E11.11649
G0 F13200 X77.616 Y98.251
G1 F2100 X78.352 Y97.698 E11.16242
G1 X79.133 Y97.21 E11.20837
G1 X79.953 Y96.792 E11.25429
G1 X80.807 Y96.447 E11.30024
G1 X81.687 Y96.177 E11.34616
G1 X82.587 Y95.985 E11.39207
G1 X83.501 Y95.871 E11.43803
G1 X84.054 Y95.841 E11.46566
G1 X84.375 Y95.832 E11.48168
G1 X84.672 Y95.828 E11.4965
G1 X114.635 Y95.828 E12.99136
G1 X115.489 Y95.839 E13.03397
G1 X116.408 Y95.892 E13.07989
G1 X117.319 Y96.025 E13.12582
G1 X118.215 Y96.236 E13.17175
G1 X119.089 Y96.524 E13.21766
G1 X119.936 Y96.887 E13.26363
G1 X120.747 Y97.322 E13.30955
G1 X121.391 Y97.736 E13.34774
G1 X121.918 Y98.104 E13.37981
G1 X123.282 Y99.082 E13.46354
G1 X125.4 Y100.512 E13.59104
G1 X127.502 Y101.846 E13.71525
G1 X129.704 Y103.157 E13.8431
G1 X131.914 Y104.389 E13.96933
G1 X134.166 Y105.565 E14.09608
G1 X136.359 Y106.631 E14.21773
G1 X136.685 Y106.796 E14.23596
G1 X137.483 Y107.255 E14.28189
G1 X138.239 Y107.781 E14.32784
G1 X138.946 Y108.371 E14.37378
G1 X139.599 Y109.02 E14.41971
G1 X140.193 Y109.723 E14.46563
G1 X140.724 Y110.476 E14.5116
G1 X141.187 Y111.271 E14.55749
G1 X141.58 Y112.104 E14.60345
G1 X141.899 Y112.967 E14.64935
G1 X142.142 Y113.855 E14.69528
G1 X142.307 Y114.761 E14.74122
G1 X142.402 Y115.898 E14.79815
G1 X142.411 Y116.208 E14.81362
G1 X142.414 Y116.672 E14.83677
G1 X142.404 Y117.352 E14.8707
G1 X142.395 Y117.648 E14.88547
G1 X142.363 Y118.388 E14.92243
G1 X142.282 Y119.806 E14.99328
G1 X142.208 Y122.353 E15.12041
G1 X142.206 Y124.833 E15.24414
G1 X142.334 Y128.614 E15.43288
G1 X142.374 Y129.358 E15.47005
G1 X142.387 Y129.711 E15.48767
G1 X142.407 Y130.691 E15.53658
G1 X142.408 Y131.055 E15.55474
G1 X142.404 Y131.341 E15.56901
G1 X142.351 Y132.26 E15.61493
G1 X142.219 Y133.171 E15.66086
G1 X142.008 Y134.068 E15.70683
G1 X141.72 Y134.942 E15.75274
G1 X141.357 Y135.788 E15.79867
G1 X140.922 Y136.6 E15.84463
G1 X140.419 Y137.371 E15.89055
G1 X139.85 Y138.095 E15.93649
G1 X139.221 Y138.767 E15.98242
G1 X138.536 Y139.382 E16.02834
G1 X137.493 Y140.138 E16.09261
G1 X136.334 Y140.875 E16.16113
G1 X134.205 Y142.272 E16.28818
G1 X132.117 Y143.73 E16.41523
G1 X130.095 Y145.227 E16.54075
G1 X128.078 Y146.81 E16.66866
G1 X126.155 Y148.411 E16.7935
G1 X124.253 Y150.088 E16.92001
G1 X123.317 Y150.958 E16.98376
G1 X122.788 Y151.437 E17.01937
G1 X122.162 Y151.962 E17.06013
G1 X122.131 Y151.986 E17.06208
G1 X121.379 Y152.517 E17.10801
G1 X120.584 Y152.981 E17.15394
G1 X119.752 Y153.375 E17.19986
G1 X118.889 Y153.695 E17.24578
G1 X118.001 Y153.938 E17.29171
G1 X117.095 Y154.104 E17.33767
G1 X115.939 Y154.2 E17.39554
G1 X115.618 Y154.209 E17.41156
G1 X115.321 Y154.213 E17.42638
G1 X85.221 Y154.212 E18.92807
G1 X84.523 Y154.203 E18.9629
G1 X83.604 Y154.151 E19.00882
G1 X82.693 Y154.02 E19.05474
G1 X81.797 Y153.81 E19.10065
G1 X80.922 Y153.523 E19.14659
G1 X80.075 Y153.161 E19.19255
G1 X79.263 Y152.727 E19.23848
G1 X78.492 Y152.225 E19.28438
G1 X77.767 Y151.657 E19.33033
G1 X77.094 Y151.028 E19.37629
G1 X76.479 Y150.344 E19.42218
G1 X75.925 Y149.609 E19.4681
G1 X75.437 Y148.828 E19.51405
G1 X75.018 Y148.008 E19.55999
G1 X74.672 Y147.155 E19.60591
G1 X74.402 Y146.275 E19.65183
G1 X74.209 Y145.374 E19.6978
G1 X74.095 Y144.461 E19.74371
G1 X74.064 Y143.89 E19.77224
G1 X74.055 Y143.557 E19.78886
G1 X74.051 Y143.271 E19.80313
G1 X74.051 Y129.276 E20.50134
G1 X74.014 Y126.651 E20.63232
G1 X73.908 Y124.158 E20.7568
G1 X73.821 Y122.927 E20.81837
G1 X73.769 Y122.035 E20.86295
G1 X73.755 Y121.716 E20.87888
G1 X73.746 Y121.396 E20.89485
G1 X73.742 Y121.098 E20.90972
G1 X73.743 Y106.959 E21.61512
G1 X73.752 Y106.294 E21.6483
G1 X73.804 Y105.374 E21.69427
G1 X73.936 Y104.463 E21.74019
G1 X74.147 Y103.567 E21.78612
G1 X74.434 Y102.692 E21.83206
G1 X74.797 Y101.846 E21.87799
G1 X75.231 Y101.034 E21.92392
G1 X75.734 Y100.263 E21.96985
G1 X76.303 Y99.539 E22.01579
G1 X76.931 Y98.867 E22.06168
G1 X77.616 Y98.251 E22.10764
G0 F13200 X78.004 Y98.452
G1 F2100 X78.736 Y97.922 E22.15273
G1 X79.511 Y97.459 E22.19777
G1 X80.324 Y97.066 E22.24282
G1 X81.169 Y96.746 E22.2879
G1 X82.038 Y96.503 E22.33291
G1 X82.926 Y96.337 E22.37798
G1 X84.065 Y96.241 E22.43501
G1 X84.386 Y96.232 E22.45103
G1 X84.672 Y96.228 E22.4653
G1 X114.635 Y96.228 E23.96016
G1 X115.483 Y96.239 E24.00247
G1 X116.385 Y96.292 E24.04755
G1 X117.278 Y96.424 E24.09259
G1 X118.156 Y96.635 E24.13764
G1 X119.012 Y96.923 E24.1827
G1 X119.839 Y97.285 E24.22773
G1 X120.631 Y97.719 E24.27279
G1 X121.162 Y98.064 E24.30438
G1 X121.685 Y98.429 E24.3362
G1 X123.071 Y99.423 E24.42129
G1 X125.167 Y100.838 E24.54746
G1 X127.317 Y102.202 E24.67449
G1 X129.51 Y103.507 E24.80181
G1 X131.713 Y104.736 E24.92766
G1 X133.971 Y105.915 E25.05475
G1 X136.185 Y106.991 E25.17756
G1 X136.501 Y107.151 E25.19523
G1 X137.284 Y107.602 E25.24031
G1 X138.023 Y108.12 E25.28533
G1 X138.714 Y108.702 E25.3304
G1 X139.351 Y109.342 E25.37545
G1 X139.929 Y110.036 E25.42051
G1 X140.442 Y110.779 E25.46556
G1 X140.889 Y111.564 E25.51063
G1 X141.264 Y112.386 E25.5557
G1 X141.564 Y113.237 E25.60072
G1 X141.789 Y114.112 E25.64579
G1 X141.935 Y115.003 E25.69084
G1 X142.002 Y115.91 E25.73621
G1 X142.011 Y116.22 E25.75169
G1 X142.014 Y116.666 E25.77394
G1 X142.004 Y117.346 E25.80787
G1 X141.996 Y117.631 E25.82209
G1 X141.963 Y118.365 E25.85875
G1 X141.882 Y119.771 E25.92901
G1 X141.808 Y122.342 E26.05733
G1 X141.806 Y124.846 E26.18226
G1 X141.935 Y128.649 E26.3721
G1 X141.974 Y129.379 E26.40857
G1 X141.987 Y129.719 E26.42554
G1 X142.007 Y130.699 E26.47445
G1 X142.008 Y131.05 E26.49196
G1 X142.004 Y131.336 E26.50623
G1 X141.951 Y132.237 E26.55126
G1 X141.819 Y133.131 E26.59634
G1 X141.609 Y134.009 E26.64138
G1 X141.321 Y134.865 E26.68644
G1 X140.959 Y135.692 E26.73148
G1 X140.525 Y136.484 E26.77653
G1 X140.023 Y137.235 E26.8216
G1 X139.456 Y137.938 E26.86666
G1 X138.83 Y138.588 E26.91168
G1 X138.148 Y139.181 E26.95677
G1 X137.278 Y139.8 E27.01004
G1 X136.186 Y140.494 E27.07459
G1 X133.963 Y141.954 E27.20728
G1 X131.872 Y143.413 E27.33448
G1 X129.856 Y144.906 E27.45964
G1 X127.842 Y146.487 E27.58738
G1 X125.898 Y148.105 E27.71357
G1 X123.98 Y149.796 E27.84113
G1 X123.048 Y150.662 E27.90461
G1 X122.519 Y151.141 E27.94021
G1 X121.917 Y151.645 E27.97938
G1 X121.886 Y151.669 E27.98134
G1 X121.148 Y152.19 E28.02641
G1 X120.367 Y152.643 E28.07145
G1 X119.549 Y153.026 E28.11651
G1 X118.7 Y153.335 E28.16159
G1 X117.828 Y153.567 E28.2066
G1 X116.938 Y153.721 E28.25167
G1 X115.928 Y153.8 E28.30221
G1 X115.607 Y153.809 E28.31823
G1 X115.321 Y153.813 E28.3325
G1 X85.226 Y153.812 E29.83395
G1 X84.528 Y153.803 E29.86877
G1 X83.627 Y153.752 E29.9138
G1 X82.733 Y153.62 E29.95888
G1 X81.855 Y153.411 E30.00391
G1 X80.998 Y153.124 E30.049
G1 X80.171 Y152.763 E30.09402
G1 X79.378 Y152.33 E30.13909
G1 X78.627 Y151.829 E30.18413
G1 X77.923 Y151.263 E30.2292
G1 X77.272 Y150.637 E30.27426
G1 X76.679 Y149.956 E30.31931
G1 X76.149 Y149.225 E30.36436
G1 X75.685 Y148.45 E30.40942
G1 X75.291 Y147.637 E30.45449
G1 X74.971 Y146.793 E30.49953
G1 X74.727 Y145.923 E30.5446
G1 X74.561 Y145.035 E30.58967
G1 X74.464 Y143.88 E30.6475
G1 X74.455 Y143.547 E30.66412
G1 X74.451 Y143.271 E30.67789
G1 X74.451 Y129.27 E31.3764
G1 X74.414 Y126.664 E31.50643
G1 X74.306 Y124.111 E31.63391
G1 X74.22 Y122.904 E31.69428
G1 X74.168 Y122.012 E31.73886
G1 X74.155 Y121.705 E31.75419
G1 X74.146 Y121.385 E31.77016
G1 X74.142 Y121.098 E31.78448
G1 X74.143 Y106.964 E32.48963
G1 X74.152 Y106.299 E32.52281
G1 X74.204 Y105.397 E32.56789
G1 X74.336 Y104.504 E32.61292
G1 X74.546 Y103.626 E32.65796
G1 X74.833 Y102.769 E32.70305
G1 X75.195 Y101.942 E32.74809
G1 X75.628 Y101.15 E32.79312
G1 X76.13 Y100.399 E32.83819
G1 X76.697 Y99.695 E32.88329
G1 X77.323 Y99.045 E32.92831
G1 X78.004 Y98.452 E32.97336
G1 F1200 E29.47336
;MESH:~KsRL_117.stl(1)
G0 F13200 X90.297 Y112.803
G0 X89.298 Y111.742
G0 X88.75 Y113.427
G0 X88.721 Y114.25
G0 X88.951 Y115.049
G0 X89.477 Y115.797
G0 X90.229 Y116.322
G0 X90.794 Y116.494
G0 X92.163 Y116.607
;TYPE:WALL-INNER
G1 F1200 E32.97336
G1 F2400 X92.485 Y116.486 E32.99052
G1 X92.787 Y116.327 E33.00755
G1 X93.068 Y116.134 E33.02456
G1 X93.323 Y115.907 E33.04159
G1 X93.549 Y115.653 E33.05855
G1 X93.72 Y115.409 E33.07342
G1 X93.882 Y115.108 E33.09047
G1 X94.02 Y114.747 E33.10975
G1 X94.108 Y114.37 E33.12907
G1 X94.139 Y114.075 E33.14387
G1 X94.139 Y113.78 E33.15858
G1 X94.108 Y113.486 E33.17333
G1 X94.021 Y113.107 E33.19273
G1 X93.9 Y112.785 E33.20989
G1 X93.741 Y112.483 E33.22692
G1 X93.548 Y112.201 E33.24397
G1 X93.321 Y111.946 E33.261
G1 X93.067 Y111.721 E33.27793
G1 X92.82 Y111.549 E33.29295
G1 X92.481 Y111.368 E33.31212
G1 X92.16 Y111.25 E33.32918
G1 X91.875 Y111.179 E33.34384
G1 X91.585 Y111.138 E33.35845
G1 X91.337 Y111.128 E33.37083
G1 X91.044 Y111.143 E33.38547
G1 X90.663 Y111.21 E33.40477
G1 X90.339 Y111.313 E33.42173
G1 X90.024 Y111.456 E33.43899
G1 X89.697 Y111.66 E33.45822
G1 X89.43 Y111.881 E33.47551
G1 X89.135 Y112.202 E33.49726
G1 X88.939 Y112.489 E33.5146
G1 X88.782 Y112.792 E33.53162
G1 X88.664 Y113.11 E33.54855
G1 X88.593 Y113.395 E33.5632
G1 X88.552 Y113.686 E33.57786
G1 X88.542 Y113.977 E33.59239
G1 X88.561 Y114.271 E33.60709
G1 X88.613 Y114.561 E33.62178
G1 X88.695 Y114.844 E33.63648
G1 X88.806 Y115.118 E33.65123
G1 X88.969 Y115.415 E33.66814
G1 X89.165 Y115.69 E33.68498
G1 X89.364 Y115.912 E33.69986
G1 X89.618 Y116.135 E33.71672
G1 X89.861 Y116.306 E33.73154
G1 X90.162 Y116.468 E33.7486
G1 X90.523 Y116.606 E33.76788
G1 X90.9 Y116.694 E33.78719
G1 X91.195 Y116.725 E33.80199
G1 X91.49 Y116.725 E33.81671
G1 X91.784 Y116.694 E33.83146
G1 X92.163 Y116.607 E33.85086
G0 F13200 X92.047 Y116.223
;TYPE:WALL-OUTER
G1 F2400 X92.321 Y116.12 E33.86546
G1 X92.58 Y115.984 E33.88006
G1 X92.821 Y115.818 E33.89466
G1 X93.04 Y115.624 E33.90925
G1 X93.234 Y115.405 E33.92385
G1 X93.379 Y115.198 E33.93646
G1 X93.518 Y114.941 E33.95104
G1 X93.637 Y114.63 E33.96765
G1 X93.713 Y114.304 E33.98435
G1 X93.739 Y114.054 E33.99689
G1 X93.739 Y113.801 E34.00951
G1 X93.713 Y113.552 E34.022
G1 X93.637 Y113.223 E34.03885
G1 X93.534 Y112.949 E34.05345
G1 X93.398 Y112.69 E34.06805
G1 X93.232 Y112.448 E34.08269
G1 X93.038 Y112.23 E34.09725
G1 X92.819 Y112.036 E34.11184
G1 X92.611 Y111.891 E34.12449
G1 X92.317 Y111.734 E34.14112
G1 X92.042 Y111.633 E34.15574
G1 X91.798 Y111.572 E34.16828
G1 X91.549 Y111.537 E34.18083
G1 X91.339 Y111.528 E34.19132
G1 X91.089 Y111.541 E34.2038
G1 X90.759 Y111.599 E34.22052
G1 X90.483 Y111.687 E34.23497
G1 X90.213 Y111.809 E34.24976
G1 X89.932 Y111.985 E34.2663
G1 X89.706 Y112.172 E34.28093
G1 X89.449 Y112.451 E34.29986
G1 X89.283 Y112.695 E34.31458
G1 X89.148 Y112.954 E34.32915
G1 X89.047 Y113.228 E34.34372
G1 X88.986 Y113.472 E34.35627
G1 X88.951 Y113.721 E34.36881
G1 X88.942 Y113.971 E34.38129
G1 X88.959 Y114.222 E34.39384
G1 X89.003 Y114.47 E34.40641
G1 X89.073 Y114.713 E34.41903
G1 X89.168 Y114.946 E34.43158
G1 X89.308 Y115.202 E34.44614
G1 X89.478 Y115.439 E34.46069
