;FLAVOR:Marlin
;TIME:1917
;Filament used: 1.49426m
;Layer height: 0.2
;MINX:83.692
;MINY:88.361
;MINZ:0.3
;MAXX:136.312
;MAXY:128.361
;MAXZ:15.9
;Generated with Cura_SteamEngine 4.11.0
M140 S45
M105
M190 S45
M104 S205
M105
M109 S205
M82 ;absolute extrusion mode
; Ender 3 Custom Start G-code
G92 E0 ; Reset Extruder
G28 ; Home all axes
G1 Z2.0 F3000 ; Move Z Axis up little to prevent scratching of Heat Bed
G1 X0.1 Y20 Z0.3 F5000.0 ; Move to start position
G1 X0.1 Y200.0 Z0.3 F1500.0 E15 ; Draw the first line
G1 X0.4 Y200.0 Z0.3 F5000.0 ; Move to side a little
G1 X0.4 Y20 Z0.3 F1500.0 E30 ; Draw the second line
G92 E0 ; Reset Extruder
G1 Z2.0 F3000 ; Move Z Axis up little to prevent scratching of Heat Bed
G1 X5 Y20 Z0.3 F5000.0 ; Move over to prevent blob squish
G92 E0
G92 E0
G1 F1200 E-3.5
;LAYER_COUNT:80
;LAYER:0
M107
G0 F13200 X88.993 Y91.541 Z0.3
;TYPE:SKIRT
G1 F1200 E0
G1 F2100 X89.688 Y90.912 E0.04677
G1 X90.434 Y90.344 E0.09354
G1 X91.226 Y89.841 E0.14035
G1 X92.058 Y89.408 E0.18715
G1 X92.924 Y89.048 E0.23394
G1 X93.817 Y88.762 E0.28072
G1 X94.732 Y88.554 E0.32753
G1 X95.661 Y88.424 E0.37433
G1 X96.544 Y88.374 E0.41845
G1 X97.48 Y88.361 E0.46516
G1 X122.005 Y88.361 E1.68871
G1 X122.864 Y88.372 E1.73157
G1 X123.8 Y88.425 E1.77834
G1 X124.728 Y88.558 E1.82512
G1 X125.642 Y88.77 E1.87193
G1 X126.535 Y89.058 E1.91874
G1 X127.399 Y89.422 E1.96551
G1 X128.23 Y89.858 E2.01233
G1 X129.02 Y90.363 E2.05911
G1 X129.764 Y90.933 E2.10587
G1 X130.186 Y91.305 E2.13393
G1 X130.337 Y91.445 E2.14421
G1 X130.54 Y91.638 E2.15818
G1 X130.799 Y91.892 E2.17628
G1 X132.725 Y93.819 E2.3122
G1 X133.183 Y94.291 E2.34502
G1 X133.807 Y94.991 E2.3918
G1 X134.369 Y95.742 E2.4386
G1 X134.865 Y96.538 E2.48539
G1 X135.291 Y97.373 E2.53216
G1 X135.645 Y98.242 E2.57897
G1 X135.923 Y99.138 E2.62577
G1 X136.124 Y100.054 E2.67256
G1 X136.223 Y100.744 E2.70734
G1 X136.241 Y100.907 E2.71552
G1 X136.306 Y101.98 E2.76915
G1 X136.312 Y102.523 E2.79624
G1 X136.311 Y114.211 E3.37936
G1 X136.301 Y114.913 E3.41438
G1 X136.248 Y115.849 E3.46116
G1 X136.115 Y116.777 E3.50793
G1 X135.903 Y117.691 E3.55474
G1 X135.615 Y118.584 E3.60155
G1 X135.251 Y119.448 E3.64832
G1 X134.815 Y120.279 E3.69514
G1 X134.31 Y121.069 E3.74192
G1 X133.74 Y121.813 E3.78868
G1 X133.367 Y122.237 E3.81685
G1 X133.226 Y122.389 E3.8272
G1 X133.024 Y122.601 E3.84181
G1 X132.843 Y122.786 E3.85472
G1 X130.858 Y124.769 E3.9947
G1 X130.364 Y125.248 E4.02903
G1 X129.664 Y125.872 E4.07581
G1 X128.913 Y126.433 E4.12258
G1 X128.116 Y126.929 E4.16942
G1 X127.281 Y127.355 E4.21618
G1 X126.412 Y127.708 E4.26298
G1 X125.516 Y127.986 E4.30978
G1 X124.6 Y128.187 E4.35657
G1 X123.67 Y128.309 E4.40336
G1 X123.078 Y128.345 E4.43295
G1 X122.693 Y128.355 E4.45217
G1 X122.15 Y128.361 E4.47926
G1 X97.261 Y128.36 E5.72098
G1 X96.563 Y128.35 E5.7558
G1 X95.627 Y128.296 E5.80258
G1 X94.699 Y128.164 E5.84934
G1 X93.785 Y127.952 E5.89615
G1 X92.893 Y127.663 E5.94293
G1 X92.028 Y127.3 E5.98973
G1 X91.198 Y126.864 E6.03651
G1 X90.407 Y126.359 E6.08333
G1 X89.663 Y125.788 E6.13012
G1 X88.97 Y125.156 E6.17691
G1 X88.333 Y124.468 E6.22369
G1 X87.758 Y123.727 E6.27048
G1 X87.247 Y122.941 E6.31725
G1 X86.816 Y122.135 E6.36285
G1 X86.631 Y121.752 E6.38407
G1 X86.428 Y121.314 E6.40816
G1 X86.287 Y120.989 E6.42583
G1 X86.033 Y120.38 E6.45875
G1 X85.94 Y120.151 E6.47108
G1 X85.739 Y119.631 E6.4989
G1 X85.572 Y119.172 E6.52326
G1 X85.362 Y118.57 E6.55507
G1 X85.217 Y118.129 E6.57823
G1 X85.047 Y117.579 E6.60695
G1 X84.937 Y117.208 E6.62626
G1 X84.801 Y116.719 E6.65158
G1 X84.627 Y116.042 E6.68646
G1 X84.543 Y115.696 E6.70422
G1 X84.388 Y115.002 E6.7397
G1 X84.338 Y114.766 E6.75173
G1 X84.252 Y114.33 E6.7739
G1 X84.197 Y114.034 E6.78892
G1 X84.094 Y113.424 E6.81979
G1 X84.018 Y112.925 E6.84497
G1 X83.934 Y112.294 E6.87673
G1 X83.881 Y111.842 E6.89943
G1 X83.854 Y111.584 E6.91237
G1 X83.794 Y110.929 E6.94519
G1 X83.768 Y110.595 E6.9619
G1 X83.739 Y110.119 E6.98569
G1 X83.727 Y109.874 E6.99793
G1 X83.704 Y109.278 E7.02769
G1 X83.697 Y108.965 E7.04331
G1 X83.692 Y108.469 E7.06806
G1 X83.692 Y108.222 E7.08038
G1 X83.699 Y107.654 E7.10872
G1 X83.707 Y107.334 E7.12469
G1 X83.73 Y106.78 E7.15235
G1 X83.769 Y106.123 E7.18519
G1 X83.794 Y105.789 E7.2019
G1 X83.856 Y105.114 E7.23571
G1 X83.884 Y104.847 E7.24911
G1 X83.934 Y104.424 E7.27036
G1 X84.017 Y103.803 E7.30162
G1 X84.094 Y103.292 E7.3274
G1 X84.162 Y102.885 E7.34798
G1 X84.279 Y102.251 E7.38015
G1 X84.338 Y101.955 E7.39521
G1 X84.388 Y101.719 E7.40724
G1 X84.541 Y101.034 E7.44226
G1 X84.643 Y100.613 E7.46387
G1 X84.805 Y99.99 E7.49599
G1 X84.942 Y99.494 E7.52166
G1 X85.101 Y98.964 E7.54926
G1 X85.257 Y98.467 E7.57525
G1 X85.438 Y97.93 E7.60352
G1 X85.568 Y97.559 E7.62314
G1 X85.768 Y97.017 E7.65196
G1 X85.949 Y96.549 E7.67699
G1 X86.038 Y96.33 E7.68879
G1 X86.269 Y95.775 E7.71878
G1 X86.404 Y95.464 E7.73569
G1 X86.572 Y95.093 E7.75601
G1 X86.693 Y94.835 E7.77023
G1 X86.818 Y94.577 E7.78453
G1 X87.262 Y93.751 E7.83132
G1 X87.775 Y92.966 E7.8781
G1 X88.354 Y92.228 E7.9249
G1 X88.993 Y91.541 E7.97171
G0 F13200 X89.322 Y91.779
G1 F2100 X90.009 Y91.166 E8.01764
G1 X90.746 Y90.615 E8.06355
G1 X91.529 Y90.129 E8.10953
G1 X92.35 Y89.714 E8.15543
G1 X93.205 Y89.372 E8.20137
G1 X94.086 Y89.105 E8.2473
G1 X94.987 Y88.915 E8.29323
G1 X95.901 Y88.804 E8.33917
G1 X96.55 Y88.774 E8.37158
G1 X97.48 Y88.761 E8.41799
G1 X122.005 Y88.761 E9.64154
G1 X122.858 Y88.772 E9.6841
G1 X123.777 Y88.825 E9.73003
G1 X124.688 Y88.958 E9.77596
G1 X125.584 Y89.169 E9.82188
G1 X126.459 Y89.457 E9.86784
G1 X127.305 Y89.82 E9.91377
G1 X128.116 Y90.255 E9.95968
G1 X128.887 Y90.759 E10.00564
G1 X129.914 Y91.598 E10.0718
G1 X130.261 Y91.924 E10.09555
G1 X130.516 Y92.175 E10.1134
G1 X132.438 Y94.097 E10.24901
G1 X132.896 Y94.569 E10.28182
G1 X133.508 Y95.257 E10.32776
G1 X134.058 Y95.996 E10.37372
G1 X134.542 Y96.779 E10.41965
G1 X134.956 Y97.601 E10.46556
G1 X135.296 Y98.457 E10.51152
G1 X135.562 Y99.338 E10.55743
G1 X135.75 Y100.239 E10.60335
G1 X135.825 Y100.788 E10.63099
G1 X135.843 Y100.951 E10.63917
G1 X135.906 Y101.984 E10.69081
G1 X135.912 Y102.523 E10.7177
G1 X135.911 Y114.205 E11.30052
G1 X135.901 Y114.907 E11.33554
G1 X135.848 Y115.826 E11.38147
G1 X135.715 Y116.737 E11.4274
G1 X135.504 Y117.633 E11.47332
G1 X135.216 Y118.508 E11.51928
G1 X134.853 Y119.354 E11.56521
G1 X134.418 Y120.165 E11.61112
G1 X133.914 Y120.936 E11.65708
G1 X133.073 Y121.965 E11.72338
G1 X132.932 Y122.117 E11.73372
G1 X132.738 Y122.321 E11.74777
G1 X132.557 Y122.506 E11.76068
G1 X130.58 Y124.482 E11.90013
G1 X130.086 Y124.961 E11.93446
G1 X129.398 Y125.573 E11.9804
G1 X128.659 Y126.122 E12.02633
G1 X127.876 Y126.606 E12.07226
G1 X127.053 Y127.019 E12.1182
G1 X126.198 Y127.36 E12.16412
G1 X125.316 Y127.625 E12.21007
G1 X124.415 Y127.813 E12.25599
G1 X123.065 Y127.945 E12.32366
G1 X122.689 Y127.955 E12.34242
G1 X122.15 Y127.961 E12.36932
G1 X97.267 Y127.96 E13.61073
G1 X96.569 Y127.95 E13.64556
G1 X95.65 Y127.897 E13.69149
G1 X94.739 Y127.764 E13.73742
G1 X93.843 Y127.553 E13.78334
G1 X92.969 Y127.265 E13.82925
G1 X92.122 Y126.902 E13.87523
G1 X91.311 Y126.467 E13.92114
G1 X90.541 Y125.963 E13.96705
G1 X89.817 Y125.394 E14.01299
G1 X89.145 Y124.764 E14.05895
G1 X88.53 Y124.079 E14.10488
G1 X87.977 Y123.343 E14.15081
G1 X87.49 Y122.562 E14.19673
G1 X87.176 Y121.961 E14.23055
G1 X86.991 Y121.578 E14.25178
G1 X86.792 Y121.148 E14.27541
G1 X86.656 Y120.835 E14.29244
G1 X86.402 Y120.226 E14.32536
G1 X86.312 Y120.005 E14.33726
G1 X86.192 Y119.698 E14.35371
G1 X85.996 Y119.17 E14.38181
G1 X85.808 Y118.639 E14.40991
G1 X85.653 Y118.178 E14.43418
G1 X85.475 Y117.612 E14.46378
G1 X85.32 Y117.094 E14.49075
G1 X85.186 Y116.613 E14.51566
G1 X85.014 Y115.943 E14.55017
G1 X84.932 Y115.603 E14.56762
G1 X84.778 Y114.915 E14.6028
G1 X84.73 Y114.688 E14.61437
G1 X84.645 Y114.256 E14.63634
G1 X84.556 Y113.767 E14.66113
G1 X84.488 Y113.359 E14.68177
G1 X84.414 Y112.866 E14.70664
G1 X84.331 Y112.242 E14.73805
G1 X84.278 Y111.796 E14.76046
G1 X84.252 Y111.548 E14.7729
G1 X84.192 Y110.893 E14.80571
G1 X84.168 Y110.571 E14.82182
G1 X84.139 Y110.095 E14.84561
G1 X84.127 Y109.859 E14.8574
G1 X84.104 Y109.263 E14.88716
G1 X84.097 Y108.961 E14.90223
G1 X84.092 Y108.465 E14.92698
G1 X84.092 Y108.227 E14.93885
G1 X84.099 Y107.659 E14.96719
G1 X84.107 Y107.35 E14.98261
G1 X84.13 Y106.796 E15.01027
G1 X84.168 Y106.147 E15.04271
G1 X84.192 Y105.825 E15.05882
G1 X84.254 Y105.15 E15.09263
G1 X84.281 Y104.893 E15.10553
G1 X84.331 Y104.476 E15.12648
G1 X84.413 Y103.861 E15.15743
G1 X84.489 Y103.358 E15.18281
G1 X84.589 Y102.768 E15.21267
G1 X84.671 Y102.329 E15.23495
G1 X84.73 Y102.033 E15.25001
G1 X84.778 Y101.806 E15.26158
G1 X84.93 Y101.126 E15.29635
G1 X85.03 Y100.713 E15.31755
G1 X85.191 Y100.095 E15.34941
G1 X85.258 Y99.848 E15.36217
G1 X85.326 Y99.608 E15.37462
G1 X85.483 Y99.082 E15.40201
G1 X85.637 Y98.594 E15.42754
G1 X85.815 Y98.063 E15.45548
G1 X85.945 Y97.692 E15.47509
G1 X86.143 Y97.156 E15.5036
G1 X86.322 Y96.694 E15.52832
G1 X86.407 Y96.484 E15.53962
G1 X86.638 Y95.929 E15.56961
G1 X86.768 Y95.629 E15.58592
G1 X86.936 Y95.258 E15.60624
G1 X87.053 Y95.009 E15.61997
G1 X87.178 Y94.751 E15.63427
G1 X87.615 Y93.941 E15.68019
G1 X88.12 Y93.172 E15.72608
G1 X88.691 Y92.449 E15.77205
G1 X89.322 Y91.779 E15.81796
G0 F13200 X89.651 Y92.017
G1 F2100 X90.329 Y91.421 E15.863
G1 X91.057 Y90.887 E15.90804
G1 X91.83 Y90.42 E15.9531
G1 X92.641 Y90.023 E15.99815
G1 X93.484 Y89.699 E16.04321
G1 X94.353 Y89.451 E16.08829
G1 X95.239 Y89.281 E16.1333
G1 X96.557 Y89.174 E16.19927
G1 X97.48 Y89.161 E16.24533
G1 X122.005 Y89.161 E17.46888
G1 X122.852 Y89.172 E17.51114
G1 X123.754 Y89.225 E17.55622
G1 X124.647 Y89.357 E17.60126
G1 X125.525 Y89.568 E17.64631
G1 X126.381 Y89.856 E17.69137
G1 X127.209 Y90.218 E17.73645
G1 X128.001 Y90.652 E17.78151
G1 X128.751 Y91.155 E17.82656
G1 X129.642 Y91.891 E17.88422
G1 X129.793 Y92.031 E17.89449
G1 X130.146 Y92.372 E17.91898
G1 X132.151 Y94.376 E18.06041
G1 X132.609 Y94.848 E18.09322
G1 X133.209 Y95.523 E18.13828
G1 X133.746 Y96.249 E18.18333
G1 X134.218 Y97.019 E18.22839
G1 X134.619 Y97.828 E18.27343
G1 X134.947 Y98.67 E18.31852
G1 X135.199 Y99.537 E18.36356
G1 X135.427 Y100.831 E18.42911
G1 X135.445 Y100.994 E18.43729
G1 X135.506 Y101.989 E18.48703
G1 X135.512 Y102.523 E18.51367
G1 X135.511 Y114.199 E19.09619
G1 X135.501 Y114.901 E19.13122
G1 X135.448 Y115.803 E19.17629
G1 X135.316 Y116.696 E19.22133
G1 X135.105 Y117.574 E19.26638
G1 X134.817 Y118.43 E19.31144
G1 X134.455 Y119.258 E19.35652
G1 X134.021 Y120.05 E19.40158
G1 X133.518 Y120.8 E19.44663
G1 X132.78 Y121.693 E19.50443
G1 X132.639 Y121.845 E19.51478
G1 X132.452 Y122.041 E19.52829
G1 X132.271 Y122.226 E19.5412
G1 X130.301 Y124.195 E19.68016
G1 X129.807 Y124.674 E19.71449
G1 X129.132 Y125.273 E19.75951
G1 X128.406 Y125.81 E19.80457
G1 X127.635 Y126.281 E19.84964
G1 X126.826 Y126.682 E19.89469
G1 X125.985 Y127.01 E19.93972
G1 X125.117 Y127.262 E19.98482
G1 X124.231 Y127.436 E20.02986
G1 X123.051 Y127.545 E20.08899
G1 X122.684 Y127.555 E20.1073
G1 X122.15 Y127.561 E20.13395
G1 X97.273 Y127.56 E21.37506
G1 X96.575 Y127.55 E21.40989
G1 X95.673 Y127.497 E21.45497
G1 X94.78 Y127.365 E21.50001
G1 X93.902 Y127.154 E21.54506
G1 X93.046 Y126.866 E21.59011
G1 X92.219 Y126.504 E21.63515
G1 X91.427 Y126.069 E21.68023
G1 X90.676 Y125.567 E21.7253
G1 X89.973 Y125 E21.77036
G1 X89.323 Y124.373 E21.81542
G1 X88.731 Y123.691 E21.86047
G1 X88.201 Y122.96 E21.90552
G1 X87.536 Y121.787 E21.97279
G1 X87.351 Y121.404 E21.99401
G1 X87.156 Y120.982 E22.0172
G1 X87.025 Y120.681 E22.03358
G1 X86.771 Y120.072 E22.0665
G1 X86.685 Y119.859 E22.07796
G1 X86.49 Y119.356 E22.10488
G1 X86.326 Y118.906 E22.12877
G1 X86.121 Y118.319 E22.15979
G1 X85.981 Y117.89 E22.1823
G1 X85.814 Y117.351 E22.21046
G1 X85.643 Y116.768 E22.24077
G1 X85.526 Y116.333 E22.26324
G1 X85.364 Y115.688 E22.29642
G1 X85.289 Y115.369 E22.31277
G1 X85.169 Y114.829 E22.34037
G1 X85.064 Y114.314 E22.36659
G1 X84.984 Y113.887 E22.38826
G1 X84.883 Y113.293 E22.41832
G1 X84.853 Y113.106 E22.42777
G1 X84.786 Y112.641 E22.45121
G1 X84.708 Y112.036 E22.48164
G1 X84.675 Y111.75 E22.49601
G1 X84.651 Y111.511 E22.50799
G1 X84.591 Y110.856 E22.54081
G1 X84.567 Y110.546 E22.55632
G1 X84.538 Y110.07 E22.58011
G1 X84.527 Y109.843 E22.59145
G1 X84.504 Y109.247 E22.6212
G1 X84.497 Y108.957 E22.63568
G1 X84.492 Y108.461 E22.66042
G1 X84.492 Y108.232 E22.67185
G1 X84.499 Y107.664 E22.70019
G1 X84.507 Y107.367 E22.71501
G1 X84.54 Y106.613 E22.75266
G1 X84.567 Y106.172 E22.77471
G1 X84.591 Y105.862 E22.79022
G1 X84.653 Y105.187 E22.82404
G1 X84.679 Y104.939 E22.83648
G1 X84.728 Y104.528 E22.85713
G1 X84.809 Y103.919 E22.88778
G1 X84.883 Y103.424 E22.91275
G1 X84.951 Y103.017 E22.93334
G1 X85.064 Y102.407 E22.96429
G1 X85.169 Y101.892 E22.99051
G1 X85.32 Y101.218 E23.02497
G1 X85.418 Y100.813 E23.04576
G1 X85.577 Y100.2 E23.07735
G1 X85.709 Y99.722 E23.10209
G1 X85.865 Y99.201 E23.12922
G1 X86.016 Y98.72 E23.15438
G1 X86.193 Y98.195 E23.18202
G1 X86.39 Y97.637 E23.21154
G1 X86.577 Y97.139 E23.23808
G1 X86.694 Y96.84 E23.2541
G1 X87.007 Y96.083 E23.29497
G1 X87.132 Y95.794 E23.31067
G1 X87.3 Y95.423 E23.33099
G1 X87.538 Y94.926 E23.35848
G1 X87.967 Y94.131 E23.40355
G1 X88.465 Y93.378 E23.44859
G1 X89.028 Y92.671 E23.49368
G1 X89.651 Y92.017 E23.53875
G1 F1200 E20.03875
;MESH:~KsK_115.stl
G0 F13200 X113.277 Y108.349
G0 X111.824 Y108.536
G0 X112.756 Y110.31
G0 X113.498 Y111.123
G0 X114.271 Y111.564
G0 X115.197 Y112.025
;TYPE:WALL-INNER
G1 F1200 E23.53875
G1 F2400 X115.583 Y112.059 E23.55808
G1 X115.968 Y112.053 E23.57729
G1 X116.349 Y112.006 E23.59644
G1 X116.665 Y111.936 E23.61259
G1 X117.028 Y111.819 E23.63162
G1 X117.379 Y111.664 E23.65076
G1 X117.664 Y111.504 E23.66707
G1 X117.975 Y111.288 E23.68596
G1 X118.267 Y111.037 E23.70517
G1 X118.492 Y110.803 E23.72136
G1 X118.73 Y110.503 E23.74047
G1 X118.935 Y110.179 E23.7596
G1 X119.106 Y109.836 E23.77872
G1 X119.222 Y109.533 E23.7949
G1 X119.31 Y109.224 E23.81093
G1 X119.371 Y108.907 E23.82704
G1 X119.408 Y108.53 E23.84594
G1 X119.41 Y108.179 E23.86345
G1 X119.364 Y107.717 E23.88661
G1 X119.273 Y107.314 E23.90722
G1 X119.139 Y106.926 E23.9277
G1 X118.991 Y106.606 E23.94529
G1 X118.815 Y106.303 E23.96277
G1 X118.642 Y106.06 E23.97766
G1 X118.415 Y105.792 E23.99518
G1 X118.164 Y105.548 E24.01264
G1 X117.932 Y105.358 E24.0276
G1 X117.547 Y105.105 E24.05059
G1 X117.228 Y104.944 E24.06841
G1 X116.847 Y104.797 E24.08879
G1 X116.506 Y104.705 E24.10641
G1 X116.214 Y104.653 E24.12121
G1 X115.869 Y104.622 E24.13849
G1 X115.626 Y104.619 E24.15061
G1 X115.163 Y104.658 E24.17379
G1 X114.705 Y104.756 E24.19716
G1 X114.264 Y104.912 E24.2205
G1 X113.945 Y105.068 E24.23821
G1 X113.69 Y105.22 E24.25302
G1 X113.406 Y105.425 E24.2705
G1 X113.141 Y105.658 E24.2881
G1 X112.898 Y105.915 E24.30575
G1 X112.651 Y106.24 E24.32611
G1 X112.438 Y106.593 E24.34668
G1 X112.268 Y106.963 E24.367
G1 X112.171 Y107.244 E24.38183
G1 X112.097 Y107.529 E24.39652
G1 X112.045 Y107.82 E24.41127
G1 X112.014 Y108.168 E24.4287
G1 X112.015 Y108.527 E24.44661
G1 X112.043 Y108.847 E24.46263
G1 X112.099 Y109.165 E24.47874
G1 X112.182 Y109.473 E24.49466
G1 X112.292 Y109.775 E24.51069
G1 X112.456 Y110.12 E24.52975
G1 X112.623 Y110.399 E24.54597
G1 X112.851 Y110.708 E24.56513
G1 X113.152 Y111.033 E24.58723
G1 X113.398 Y111.249 E24.60356
G1 X113.709 Y111.473 E24.62269
G1 X114.096 Y111.69 E24.64482
G1 X114.397 Y111.819 E24.66116
G1 X114.761 Y111.937 E24.68025
G1 X115.197 Y112.025 E24.70244
G0 F13200 X115.255 Y111.629
