;FLAVOR:Marlin
;TIME:771
;Filament used: 0.369348m
;Layer height: 0.2
;MINX:93.149
;MINY:92.496
;MINZ:0.3
;MAXX:126.855
;MAXY:129.496
;MAXZ:8.9
;Generated with Cura_SteamEngine 4.11.0
M140 S45
M105
M190 S45
M104 S205
M105
M109 S205
M82 ;absolute extrusion mode
; Ender 3 Custom Start G-code
G92 E0 ; Reset Extruder
G28 ; Home all axes
G1 Z2.0 F3000 ; Move Z Axis up little to prevent scratching of Heat Bed
G1 X0.1 Y20 Z0.3 F5000.0 ; Move to start position
G1 X0.1 Y200.0 Z0.3 F1500.0 E15 ; Draw the first line
G1 X0.4 Y200.0 Z0.3 F5000.0 ; Move to side a little
G1 X0.4 Y20 Z0.3 F1500.0 E30 ; Draw the second line
G92 E0 ; Reset Extruder
G1 Z2.0 F3000 ; Move Z Axis up little to prevent scratching of Heat Bed
G1 X5 Y20 Z0.3 F5000.0 ; Move over to prevent blob squish
G92 E0
G92 E0
G1 F1200 E-3.5
;LAYER_COUNT:45
;LAYER:0
M107
G0 F13200 X96.076 Y96.037 Z0.3
;TYPE:SKIRT
G1 F1200 E0
G1 F2100 X96.742 Y95.376 E0.04681
G1 X97.461 Y94.775 E0.09357
G1 X98.229 Y94.236 E0.14038
G1 X99.04 Y93.765 E0.18717
G1 X99.888 Y93.365 E0.23394
G1 X100.768 Y93.039 E0.28076
G1 X101.671 Y92.789 E0.32751
G1 X102.593 Y92.616 E0.37431
G1 X103.845 Y92.509 E0.437
G1 X104.166 Y92.5 E0.45302
G1 X104.474 Y92.496 E0.46839
G1 X115.149 Y92.496 E1.00097
G1 X116.005 Y92.507 E1.04368
G1 X116.941 Y92.561 E1.09045
G1 X117.869 Y92.693 E1.13721
G1 X118.783 Y92.905 E1.18402
G1 X119.675 Y93.194 E1.2308
G1 X120.54 Y93.557 E1.27761
G1 X121.37 Y93.993 E1.32438
G1 X122.161 Y94.498 E1.3712
G1 X122.905 Y95.069 E1.41799
G1 X123.598 Y95.701 E1.46478
G1 X124.235 Y96.389 E1.51156
G1 X124.81 Y97.13 E1.55835
G1 X125.321 Y97.916 E1.60513
G1 X125.763 Y98.744 E1.65195
G1 X126.132 Y99.606 E1.69873
G1 X126.427 Y100.496 E1.74551
G1 X126.645 Y101.408 E1.79229
G1 X126.785 Y102.336 E1.83911
G1 X126.842 Y103.185 E1.88157
G1 X126.851 Y103.493 E1.89694
G1 X126.855 Y103.978 E1.92114
G1 X126.845 Y104.648 E1.95457
G1 X126.836 Y104.947 E1.96949
G1 X126.803 Y105.702 E2.00719
G1 X126.721 Y107.136 E2.07885
G1 X126.649 Y109.621 E2.20288
G1 X126.647 Y112.126 E2.32786
G1 X126.775 Y115.902 E2.51635
G1 X126.813 Y116.596 E2.55103
G1 X126.827 Y116.966 E2.5695
G1 X126.848 Y117.976 E2.6199
G1 X126.849 Y118.322 E2.63716
G1 X126.846 Y118.604 E2.65123
G1 X126.796 Y119.541 E2.69804
G1 X126.667 Y120.469 E2.74479
G1 X126.459 Y121.384 E2.7916
G1 X126.173 Y122.277 E2.83838
G1 X125.813 Y123.143 E2.88517
G1 X125.38 Y123.975 E2.93197
G1 X124.878 Y124.767 E2.97875
G1 X124.31 Y125.514 E3.02556
G1 X123.681 Y126.209 E3.07233
G1 X122.995 Y126.848 E3.1191
G1 X122.256 Y127.427 E3.16594
G1 X121.471 Y127.94 E3.21273
G1 X120.646 Y128.385 E3.25949
G1 X119.785 Y128.758 E3.3063
G1 X118.896 Y129.056 E3.35308
G1 X117.985 Y129.277 E3.39985
G1 X117.058 Y129.42 E3.44665
G1 X116.155 Y129.483 E3.49181
G1 X115.834 Y129.492 E3.50783
G1 X115.526 Y129.496 E3.52319
G1 X104.709 Y129.495 E4.06286
G1 X104.011 Y129.486 E4.09768
G1 X103.075 Y129.434 E4.14445
G1 X102.146 Y129.302 E4.19127
G1 X101.232 Y129.092 E4.23805
G1 X100.339 Y128.805 E4.28485
G1 X99.474 Y128.442 E4.33165
G1 X98.643 Y128.008 E4.37842
G1 X97.852 Y127.504 E4.42522
G1 X97.107 Y126.934 E4.47202
G1 X96.413 Y126.303 E4.51881
G1 X95.776 Y125.616 E4.56555
G1 X95.199 Y124.876 E4.61237
G1 X94.687 Y124.09 E4.65917
G1 X94.244 Y123.263 E4.70597
G1 X93.873 Y122.402 E4.75275
G1 X93.577 Y121.512 E4.79954
G1 X93.358 Y120.6 E4.84633
G1 X93.217 Y119.673 E4.89311
G1 X93.158 Y118.81 E4.93627
G1 X93.153 Y118.64 E4.94475
G1 X93.149 Y118.149 E4.96925
G1 X93.155 Y117.757 E4.98881
G1 X93.164 Y117.449 E5.00418
G1 X93.182 Y117.051 E5.02406
G1 X93.309 Y114.807 E5.13619
G1 X93.379 Y112.286 E5.26201
G1 X93.379 Y109.762 E5.38794
G1 X93.308 Y107.285 E5.51157
G1 X93.239 Y106.124 E5.56959
G1 X93.234 Y105.817 E5.58491
G1 X93.189 Y105.006 E5.62543
G1 X93.175 Y104.63 E5.6442
G1 X93.156 Y103.74 E5.68862
G1 X93.175 Y102.802 E5.73542
G1 X93.275 Y101.87 E5.78219
G1 X93.454 Y100.949 E5.829
G1 X93.711 Y100.047 E5.87579
G1 X94.043 Y99.17 E5.92257
G1 X94.449 Y98.324 E5.96939
G1 X94.926 Y97.517 E6.01616
G1 X95.469 Y96.752 E6.06296
G1 X96.076 Y96.037 E6.10975
G0 F13200 X96.474 Y96.198
G1 F2100 X97.137 Y95.559 E6.15569
G1 X97.853 Y94.98 E6.20163
G1 X98.616 Y94.466 E6.24753
G1 X99.422 Y94.02 E6.29349
G1 X100.263 Y93.645 E6.33943
G1 X101.133 Y93.344 E6.38535
G1 X102.026 Y93.121 E6.43127
G1 X102.935 Y92.975 E6.47721
G1 X103.856 Y92.909 E6.52327
G1 X104.177 Y92.9 E6.53929
G1 X104.474 Y92.896 E6.55411
G1 X115.149 Y92.896 E7.08669
G1 X115.999 Y92.907 E7.1291
G1 X116.918 Y92.96 E7.17503
G1 X117.829 Y93.093 E7.22096
G1 X118.725 Y93.304 E7.26688
G1 X119.599 Y93.592 E7.31279
G1 X120.446 Y93.955 E7.35877
G1 X121.257 Y94.39 E7.40468
G1 X122.027 Y94.894 E7.45059
G1 X122.751 Y95.463 E7.49653
G1 X123.423 Y96.093 E7.54249
G1 X124.038 Y96.778 E7.58842
G1 X124.591 Y97.514 E7.63435
G1 X125.078 Y98.295 E7.68026
G1 X125.495 Y99.116 E7.72621
G1 X125.84 Y99.97 E7.77216
G1 X126.109 Y100.85 E7.81807
G1 X126.301 Y101.751 E7.86403
G1 X126.414 Y102.664 E7.90992
G1 X126.442 Y103.196 E7.9365
G1 X126.451 Y103.504 E7.95187
G1 X126.455 Y103.972 E7.97522
G1 X126.445 Y104.642 E8.00865
G1 X126.437 Y104.93 E8.02303
G1 X126.404 Y105.68 E8.06048
G1 X126.323 Y107.099 E8.13139
G1 X126.249 Y109.661 E8.25926
G1 X126.247 Y112.14 E8.38294
G1 X126.376 Y115.938 E8.57253
G1 X126.413 Y116.618 E8.60651
G1 X126.427 Y116.975 E8.62433
G1 X126.448 Y117.985 E8.67473
G1 X126.449 Y118.318 E8.69135
G1 X126.446 Y118.6 E8.70542
G1 X126.397 Y119.519 E8.75133
G1 X126.267 Y120.431 E8.79729
G1 X126.059 Y121.327 E8.84318
G1 X125.774 Y122.203 E8.88914
G1 X125.414 Y123.05 E8.93505
G1 X124.982 Y123.863 E8.98099
G1 X124.481 Y124.636 E9.02694
G1 X123.915 Y125.362 E9.07287
G1 X123.288 Y126.036 E9.1188
G1 X122.605 Y126.653 E9.16472
G1 X121.871 Y127.209 E9.21066
G1 X121.092 Y127.699 E9.25657
G1 X120.273 Y128.119 E9.30249
G1 X119.42 Y128.467 E9.34845
G1 X118.541 Y128.739 E9.39436
G1 X117.641 Y128.934 E9.4403
G1 X116.728 Y129.05 E9.48621
G1 X116.144 Y129.083 E9.5154
G1 X115.823 Y129.092 E9.53142
G1 X115.526 Y129.096 E9.54624
G1 X104.714 Y129.095 E10.08565
G1 X104.016 Y129.086 E10.12048
G1 X103.097 Y129.034 E10.1664
G1 X102.186 Y128.903 E10.21232
G1 X101.29 Y128.693 E10.25823
G1 X100.415 Y128.406 E10.30417
G1 X99.568 Y128.044 E10.35013
G1 X98.756 Y127.61 E10.39606
G1 X97.985 Y127.108 E10.44196
G1 X97.26 Y126.54 E10.48791
G1 X96.587 Y125.911 E10.53387
G1 X95.972 Y125.227 E10.57976
G1 X95.418 Y124.492 E10.62568
G1 X94.93 Y123.711 E10.67162
G1 X94.511 Y122.891 E10.71756
G1 X94.165 Y122.038 E10.76349
G1 X93.895 Y121.158 E10.80941
G1 X93.702 Y120.257 E10.85538
G1 X93.588 Y119.344 E10.90128
G1 X93.558 Y118.799 E10.92852
G1 X93.553 Y118.629 E10.937
G1 X93.549 Y118.155 E10.96065
G1 X93.555 Y117.763 E10.98021
G1 X93.564 Y117.466 E10.99503
G1 X93.582 Y117.074 E11.01461
G1 X93.708 Y114.842 E11.12614
G1 X93.779 Y112.297 E11.25316
G1 X93.779 Y109.785 E11.37849
G1 X93.707 Y107.262 E11.50441
G1 X93.638 Y106.1 E11.56249
G1 X93.633 Y105.801 E11.57741
G1 X93.588 Y104.984 E11.61823
G1 X93.574 Y104.621 E11.63635
G1 X93.555 Y103.731 E11.68076
G1 X93.576 Y102.811 E11.72667
G1 X93.676 Y101.896 E11.7726
G1 X93.855 Y100.993 E11.81852
G1 X94.112 Y100.108 E11.8645
G1 X94.444 Y99.25 E11.9104
G1 X94.85 Y98.424 E11.95632
G1 X95.326 Y97.636 E12.00225
G1 X95.869 Y96.892 E12.0482
G1 X96.474 Y96.198 E12.09413
G0 F13200 X96.871 Y96.362
G1 F2100 X97.532 Y95.746 E12.13921
G1 X98.244 Y95.191 E12.18425
G1 X99.003 Y94.701 E12.22932
G1 X99.802 Y94.28 E12.27438
G1 X100.635 Y93.931 E12.31944
G1 X101.495 Y93.657 E12.36447
G1 X102.377 Y93.461 E12.40954
G1 X103.272 Y93.343 E12.45458
G1 X103.867 Y93.309 E12.48431
G1 X104.188 Y93.3 E12.50034
G1 X104.474 Y93.296 E12.51461
G1 X115.149 Y93.296 E13.04718
G1 X115.993 Y93.307 E13.08929
G1 X116.895 Y93.36 E13.13437
G1 X117.788 Y93.492 E13.17941
G1 X118.666 Y93.703 E13.22446
G1 X119.522 Y93.991 E13.26952
G1 X120.349 Y94.353 E13.31456
G1 X121.141 Y94.788 E13.35964
G1 X121.892 Y95.29 E13.40471
G1 X122.595 Y95.857 E13.44976
G1 X123.245 Y96.484 E13.49482
G1 X123.837 Y97.166 E13.53988
G1 X124.367 Y97.897 E13.58492
G1 X124.829 Y98.673 E13.62998
G1 X125.222 Y99.486 E13.67503
G1 X125.54 Y100.331 E13.72007
G1 X125.783 Y101.201 E13.76514
G1 X125.948 Y102.089 E13.8102
G1 X126.043 Y103.208 E13.86623
G1 X126.052 Y103.516 E13.8816
G1 X126.055 Y103.966 E13.90405
G1 X126.045 Y104.636 E13.93748
G1 X126.037 Y104.913 E13.95131
G1 X126.005 Y105.657 E13.98846
G1 X125.923 Y107.104 E14.06077
G1 X125.849 Y109.65 E14.18784
G1 X125.847 Y112.153 E14.31272
G1 X125.975 Y115.926 E14.50106
G1 X126.014 Y116.64 E14.53674
G1 X126.027 Y116.983 E14.55386
G1 X126.048 Y117.993 E14.60426
G1 X126.049 Y118.314 E14.62028
G1 X126.046 Y118.596 E14.63435
G1 X125.997 Y119.497 E14.67936
G1 X125.868 Y120.391 E14.72443
G1 X125.66 Y121.27 E14.76949
G1 X125.375 Y122.127 E14.81455
G1 X125.016 Y122.956 E14.85962
G1 X124.585 Y123.749 E14.90465
G1 X124.085 Y124.501 E14.9497
G1 X123.521 Y125.206 E14.99475
G1 X122.896 Y125.859 E15.03984
G1 X122.217 Y126.454 E15.08488
G1 X121.487 Y126.986 E15.12995
G1 X120.713 Y127.451 E15.175
G1 X119.901 Y127.847 E15.22007
G1 X119.057 Y128.169 E15.26513
G1 X118.189 Y128.415 E15.31014
G1 X117.301 Y128.583 E15.35523
G1 X116.133 Y128.683 E15.41372
G1 X115.812 Y128.692 E15.42974
G1 X115.526 Y128.696 E15.44401
G1 X104.719 Y128.695 E15.98317
G1 X104.021 Y128.686 E16.018
G1 X103.12 Y128.635 E16.06302
G1 X102.226 Y128.503 E16.10811
G1 X101.348 Y128.294 E16.15313
G1 X100.491 Y128.007 E16.19822
G1 X99.664 Y127.646 E16.24324
G1 X98.871 Y127.213 E16.28832
G1 X98.12 Y126.712 E16.33336
G1 X97.416 Y126.146 E16.37843
G1 X96.765 Y125.52 E16.42348
G1 X96.172 Y124.839 E16.46854
G1 X95.642 Y124.108 E16.51358
G1 X95.178 Y123.333 E16.55865
G1 X94.784 Y122.52 E16.60372
G1 X94.464 Y121.676 E16.64875
G1 X94.22 Y120.806 E16.69383
G1 X94.054 Y119.918 E16.7389
G1 X93.957 Y118.787 E16.79553
G1 X93.952 Y118.617 E16.80402
G1 X93.949 Y118.161 E16.82677
G1 X93.955 Y117.769 E16.84633
G1 X93.964 Y117.484 E16.86055
G1 X93.981 Y117.096 E16.87993
G1 X94.108 Y114.84 E16.99266
G1 X94.179 Y112.308 E17.11903
G1 X94.179 Y109.773 E17.2455
G1 X94.106 Y107.229 E17.37248
G1 X94.038 Y106.077 E17.43005
G1 X94.033 Y105.776 E17.44507
G1 X93.988 Y104.961 E17.48579
G1 X93.974 Y104.613 E17.50317
G1 X93.955 Y103.723 E17.54758
G1 X93.976 Y102.82 E17.59264
G1 X94.077 Y101.922 E17.63773
G1 X94.256 Y101.037 E17.68277
G1 X94.513 Y100.172 E17.72779
G1 X94.846 Y99.332 E17.77287
G1 X95.251 Y98.525 E17.81792
G1 X95.727 Y97.757 E17.863
G1 X96.268 Y97.034 E17.90805
G1 X96.871 Y96.362 E17.9531
G1 F1200 E14.4531
;MESH:~KsM_118.stl
G0 F13200 X103.479 Y103.81
G0 X104.458 Y103.81
G0 X108.838 Y104.297
G0 X107.162 Y106.974
G0 X108.089 Y108.489
G0 X108.602 Y108.984
G0 X109.514 Y109.725
;TYPE:WALL-INNER
G1 F1200 E17.9531
G1 F2400 X109.897 Y109.785 E17.97244
G1 X110.191 Y109.795 E17.98711
G1 X110.485 Y109.776 E18.00181
G1 X110.777 Y109.724 E18.01661
G1 X111.146 Y109.612 E18.03585
G1 X111.463 Y109.466 E18.05326
G1 X111.826 Y109.235 E18.07473
G1 X112.056 Y109.042 E18.0897
G1 X112.29 Y108.796 E18.10664
G1 X112.493 Y108.522 E18.12366
G1 X112.639 Y108.266 E18.13836
G1 X112.76 Y107.996 E18.15312
G1 X112.872 Y107.629 E18.17226
G1 X112.924 Y107.337 E18.18706
G1 X112.943 Y107.043 E18.20176
G1 X112.933 Y106.752 E18.21629
G1 X112.892 Y106.462 E18.2309
G1 X112.821 Y106.173 E18.24574
G1 X112.682 Y105.811 E18.26509
G1 X112.495 Y105.473 E18.28436
G1 X112.319 Y105.232 E18.29925
G1 X112.12 Y105.012 E18.31405
G1 X111.796 Y104.733 E18.33538
G1 X111.54 Y104.567 E18.3506
G1 X111.381 Y104.49 E18.35942
G1 X111.193 Y104.399 E18.36984
G1 X110.826 Y104.279 E18.3891
G1 X110.532 Y104.222 E18.40404
G1 X110.195 Y104.195 E18.42091
G1 X109.9 Y104.206 E18.43564
G1 X109.609 Y104.247 E18.4503
G1 X109.281 Y104.33 E18.46718
G1 X109.005 Y104.437 E18.48195
G1 X108.898 Y104.491 E18.48793
G1 X108.74 Y104.572 E18.49678
G1 X108.421 Y104.787 E18.51598
G1 X108.164 Y105.016 E18.53315
G1 X107.935 Y105.273 E18.55032
G1 X107.718 Y105.595 E18.5697
G1 X107.549 Y105.942 E18.58895
G1 X107.452 Y106.222 E18.60374
G1 X107.386 Y106.509 E18.61843
G1 X107.349 Y106.8 E18.63306
G1 X107.345 Y107.093 E18.64768
G1 X107.37 Y107.386 E18.66235
G1 X107.427 Y107.678 E18.6772
G1 X107.546 Y108.042 E18.6963
G1 X107.673 Y108.315 E18.71132
G1 X107.878 Y108.643 E18.73062
G1 X108.126 Y108.939 E18.74989
G1 X108.345 Y109.141 E18.76475
G1 X108.579 Y109.319 E18.77942
G1 X108.869 Y109.49 E18.79621
G1 X109.143 Y109.612 E18.81118
G1 X109.514 Y109.725 E18.83053
G0 F13200 X109.603 Y109.334
;TYPE:WALL-OUTER
G1 F2400 X109.935 Y109.386 E18.84729
G1 X110.185 Y109.395 E18.85977
G1 X110.436 Y109.378 E18.87232
G1 X110.684 Y109.334 E18.88489
G1 X111.004 Y109.237 E18.90157
G1 X111.271 Y109.114 E18.91624
G1 X111.589 Y108.912 E18.93503
G1 X111.781 Y108.75 E18.94757
G1 X111.983 Y108.538 E18.96218
G1 X112.157 Y108.303 E18.97676
G1 X112.282 Y108.084 E18.98934
G1 X112.385 Y107.855 E19.00187
G1 X112.482 Y107.536 E19.01851
G1 X112.526 Y107.288 E19.03107
G1 X112.543 Y107.037 E19.04362
G1 X112.534 Y106.787 E19.0561
G1 X112.499 Y106.538 E19.06865
G1 X112.439 Y106.293 E19.08123
G1 X112.319 Y105.981 E19.09791
G1 X112.157 Y105.689 E19.11457
G1 X112.008 Y105.485 E19.12717
G1 X111.84 Y105.299 E19.13968
G1 X111.555 Y105.054 E19.15843
G1 X111.343 Y104.916 E19.17105
G1 X111.043 Y104.771 E19.18767
G1 X110.725 Y104.667 E19.20436
G1 X110.478 Y104.619 E19.21692
G1 X110.186 Y104.596 E19.23153
G1 X109.935 Y104.605 E19.24406
G1 X109.686 Y104.64 E19.25661
G1 X109.403 Y104.712 E19.27117
G1 X109.168 Y104.803 E19.28375
G1 X108.943 Y104.917 E19.29633
G1 X108.667 Y105.104 E19.31296
G1 X108.447 Y105.299 E19.32763
G1 X108.252 Y105.519 E19.3423
G1 X108.065 Y105.796 E19.35897
G1 X107.919 Y106.095 E19.37557
G1 X107.837 Y106.333 E19.38813
G1 X107.78 Y106.579 E19.40073
G1 X107.749 Y106.828 E19.41325
G1 X107.745 Y107.079 E19.42577
G1 X107.767 Y107.33 E19.43834
G1 X107.815 Y107.577 E19.4509
G1 X107.919 Y107.895 E19.46759
G1 X108.025 Y108.124 E19.48018
G1 X108.202 Y108.407 E19.49683
G1 X108.416 Y108.662 E19.51344
G1 X108.602 Y108.834 E19.52608
G1 X108.802 Y108.986 E19.53861
G1 X109.053 Y109.134 E19.55315
G1 X109.283 Y109.237 E19.56572
G1 X109.603 Y109.334 E19.5824
G0 F13200 X109.505 Y109.762
G0 X112.173 Y109.166
G0 X112.984 Y106.121
G0 X111.443 Y104.298
G0 X115.074 Y104.278
G0 X114.386 Y109.574
G0 X111.984 Y109.523
G0 X111.372 Y111.205
G0 X112.671 Y112.632
;TYPE:WALL-INNER
G1 F2400 X113.112 Y112.699 E19.60466
G1 X113.53 Y112.656 E19.62562
G1 X113.939 Y112.502 E19.64742
G1 X114.191 Y112.331 E19.66262
G1 X114.241 Y112.297 E19.66563
G1 X114.519 Y112 E19.68593
G1 X114.558 Y111.931 E19.68988
G1 X114.56 Y111.998 E19.68991
G1 X114.571 Y112.284 E19.69808
G1 X114.573 Y112.345 E19.70089
G1 X114.582 Y112.545 E19.71088
G1 X114.612 Y113.058 E19.73652
G1 X114.652 Y113.572 E19.76224
G1 X114.7 Y114.083 E19.78784
G1 X114.756 Y114.594 E19.81349
G1 X114.821 Y115.105 E19.83919
G1 X114.893 Y115.604 E19.86434
G1 X114.975 Y116.112 E19.89002
G1 X115.064 Y116.618 E19.91565
G1 X115.163 Y117.123 E19.94132
G1 X115.249 Y117.523 E19.96173
G1 X115.256 Y117.56 E19.96361
G1 X115.256 Y117.896 E19.98038
G1 X115.218 Y117.896 E19.98216
G1 X111.407 Y117.896 E20.17229
G1 X111.15 Y117.896 E20.18511
G1 X110.869 Y117.896 E20.19913
G1 X110.582 Y117.896 E20.21345
G1 X110.29 Y117.896 E20.22802
G1 X109.998 Y117.896 E20.24258
G1 X109.703 Y117.896 E20.2573
G1 X109.325 Y117.896 E20.27616
G1 X108.959 Y117.896 E20.29442
G1 X108.888 Y117.896 E20.29796
G1 X105.187 Y117.896 E20.48261
G1 X104.898 Y117.896 E20.49702
G1 X104.863 Y117.896 E20.49877
G1 X104.898 Y117.837 E20.50007
G1 X105.039 Y117.585 E20.50917
G1 X105.127 Y117.427 E20.51819
