;FLAVOR:Marlin
;TIME:768
;Filament used: 0.383103m
;Layer height: 0.2
;MINX:89.668
;MINY:89.081
;MINZ:0.3
;MAXX:131.266
;MAXY:135.026
;MAXZ:7.1
;Generated with Cura_SteamEngine 4.11.0
M140 S45
M105
M190 S45
M104 S205
M105
M109 S205
M82 ;absolute extrusion mode
; Ender 3 Custom Start G-code
G92 E0 ; Reset Extruder
G28 ; Home all axes
G1 Z2.0 F3000 ; Move Z Axis up little to prevent scratching of Heat Bed
G1 X0.1 Y20 Z0.3 F5000.0 ; Move to start position
G1 X0.1 Y200.0 Z0.3 F1500.0 E15 ; Draw the first line
G1 X0.4 Y200.0 Z0.3 F5000.0 ; Move to side a little
G1 X0.4 Y20 Z0.3 F1500.0 E30 ; Draw the second line
G92 E0 ; Reset Extruder
G1 Z2.0 F3000 ; Move Z Axis up little to prevent scratching of Heat Bed
G1 X5 Y20 Z0.3 F5000.0 ; Move over to prevent blob squish
G92 E0
G92 E0
G1 F1200 E-3.5
;LAYER_COUNT:36
;LAYER:0
M107
G0 F13200 X96.53 Y93.114 Z0.3
;TYPE:SKIRT
G1 F1200 E0
G1 F2100 X96.894 Y92.738 E0.02611
G1 X97.563 Y92.103 E0.07213
G1 X97.626 Y92.048 E0.0763
G1 X98.346 Y91.47 E0.12236
G1 X98.512 Y91.348 E0.13264
G1 X99.126 Y90.928 E0.16975
G1 X99.34 Y90.792 E0.1824
G1 X100.152 Y90.323 E0.22919
G1 X101.002 Y89.925 E0.27601
G1 X101.882 Y89.601 E0.3228
G1 X102.786 Y89.353 E0.36956
G1 X103.708 Y89.183 E0.41634
G1 X104.642 Y89.092 E0.46316
G1 X105.65 Y89.084 E0.51345
G1 X106.63 Y89.121 E0.56237
G1 X109.221 Y89.179 E0.69167
G1 X111.761 Y89.165 E0.8184
G1 X113.947 Y89.097 E0.92751
G1 X114.118 Y89.09 E0.93605
G1 X114.685 Y89.081 E0.96434
G1 X115.087 Y89.085 E0.98439
G1 X116.257 Y89.159 E1.04288
G1 X116.462 Y89.183 E1.05318
G1 X117.663 Y89.391 E1.11399
G1 X118.013 Y89.472 E1.13191
G1 X118.961 Y89.737 E1.18102
G1 X119.336 Y89.86 E1.20071
G1 X120.214 Y90.19 E1.24751
G1 X120.812 Y90.466 E1.28037
G1 X121.067 Y90.593 E1.29458
G1 X121.953 Y91.086 E1.34516
G1 X122.31 Y91.307 E1.36611
G1 X123.341 Y92.03 E1.42893
G1 X123.508 Y92.162 E1.43955
G1 X124.277 Y92.83 E1.49037
G1 X124.512 Y93.054 E1.50657
G1 X125.184 Y93.754 E1.55498
G1 X125.579 Y94.227 E1.58573
G1 X125.845 Y94.564 E1.60715
G1 X126.395 Y95.324 E1.65395
G1 X126.712 Y95.835 E1.68395
G1 X126.932 Y96.212 E1.70573
G1 X127.516 Y97.364 E1.77016
G1 X127.624 Y97.612 E1.78366
G1 X127.874 Y98.236 E1.8172
G1 X127.909 Y98.332 E1.82229
G1 X128.105 Y98.922 E1.85331
G1 X128.266 Y99.455 E1.88109
G1 X129.063 Y101.962 E2.01233
G1 X129.718 Y103.859 E2.11246
G1 X130.038 Y104.753 E2.15983
G1 X130.149 Y105.077 E2.17692
G1 X130.315 Y105.591 E2.20386
G1 X130.425 Y105.953 E2.22274
G1 X130.564 Y106.44 E2.24801
G1 X130.697 Y106.952 E2.2744
G1 X130.774 Y107.281 E2.29126
G1 X130.869 Y107.731 E2.3142
G1 X130.952 Y108.167 E2.33634
G1 X131.013 Y108.516 E2.35402
G1 X131.049 Y108.745 E2.36558
G1 X131.102 Y109.126 E2.38478
G1 X131.141 Y109.447 E2.40091
G1 X131.188 Y109.894 E2.42333
G1 X131.229 Y110.429 E2.4501
G1 X131.242 Y110.682 E2.46274
G1 X131.255 Y111.09 E2.48311
G1 X131.266 Y111.867 E2.52187
G1 X131.252 Y112.602 E2.55855
G1 X131.218 Y113.247 E2.59077
G1 X131.192 Y113.621 E2.60948
G1 X131.172 Y113.851 E2.621
G1 X131.129 Y114.255 E2.64127
G1 X131.058 Y114.826 E2.66997
G1 X130.902 Y115.754 E2.71692
G1 X130.706 Y116.677 E2.764
G1 X130.52 Y117.424 E2.8024
G1 X130.442 Y117.696 E2.81652
G1 X130.329 Y118.065 E2.83577
G1 X130.17 Y118.554 E2.86143
G1 X130.067 Y118.856 E2.87734
G1 X129.939 Y119.214 E2.89631
G1 X129.686 Y119.856 E2.93074
G1 X129.554 Y120.163 E2.94741
G1 X129.411 Y120.483 E2.9649
G1 X128.614 Y122.182 E3.05852
G1 X128.368 Y122.688 E3.08659
G1 X127.306 Y125.044 E3.21553
G1 X126.799 Y126.247 E3.28066
G1 X126.616 Y126.664 E3.30337
G1 X126.36 Y127.206 E3.33328
G1 X126.22 Y127.483 E3.34876
G1 X125.803 Y128.235 E3.39166
G1 X125.71 Y128.388 E3.4006
G1 X125.264 Y129.063 E3.44096
G1 X125.122 Y129.262 E3.45316
G1 X124.342 Y130.234 E3.51533
G1 X124.134 Y130.465 E3.53084
G1 X123.606 Y131.012 E3.56877
G1 X123.455 Y131.158 E3.57925
G1 X122.914 Y131.647 E3.61563
G1 X122.654 Y131.867 E3.63262
G1 X121.628 Y132.638 E3.69665
G1 X121.444 Y132.76 E3.70767
G1 X120.745 Y133.187 E3.74853
G1 X120.531 Y133.307 E3.76077
G1 X119.764 Y133.698 E3.80372
G1 X119.58 Y133.783 E3.81384
G1 X119.043 Y134.014 E3.843
G1 X118.108 Y134.344 E3.89247
G1 X117.616 Y134.493 E3.91811
G1 X116.708 Y134.726 E3.96488
G1 X116.071 Y134.842 E3.99719
G1 X115.793 Y134.884 E4.01121
G1 X114.783 Y134.989 E4.06187
G1 X114.384 Y135.012 E4.08181
G1 X113.446 Y135.026 E4.12861
G1 X112.954 Y135.001 E4.15319
G1 X112.61 Y134.976 E4.1704
G1 X111.991 Y134.913 E4.20144
G1 X111.09 Y134.796 E4.24677
G1 X109.564 Y134.58 E4.32366
G1 X107.094 Y134.303 E4.44766
G1 X104.58 Y134.106 E4.57347
G1 X104.338 Y134.077 E4.58563
G1 X103.227 Y133.994 E4.64121
G1 X102.295 Y133.884 E4.68803
G1 X101.376 Y133.695 E4.73484
G1 X100.477 Y133.429 E4.78162
G1 X99.604 Y133.088 E4.82837
G1 X98.763 Y132.673 E4.87516
G1 X97.96 Y132.188 E4.92196
G1 X97.428 Y131.811 E4.95449
G1 X97.262 Y131.686 E4.96486
G1 X96.424 Y130.987 E5.0193
G1 X96.194 Y130.775 E5.03491
G1 X95.267 Y129.81 E5.10167
G1 X95.052 Y129.557 E5.11823
G1 X94.358 Y128.648 E5.17529
G1 X94.206 Y128.426 E5.18871
G1 X93.709 Y127.631 E5.23549
G1 X93.455 Y127.155 E5.26241
G1 X93.206 Y126.66 E5.29005
G1 X92.893 Y125.98 E5.3274
G1 X92.53 Y124.997 E5.37968
G1 X92.193 Y123.93 E5.4355
G1 X92.109 Y123.652 E5.44999
G1 X91.332 Y121.243 E5.57627
G1 X90.928 Y120.096 E5.63694
G1 X90.451 Y118.718 E5.70969
G1 X90.338 Y118.374 E5.72776
G1 X90.159 Y117.796 E5.75795
G1 X89.92 Y116.889 E5.80474
G1 X89.759 Y115.965 E5.85153
G1 X89.678 Y115.031 E5.89831
G1 X89.668 Y114.366 E5.93149
G1 X89.678 Y113.974 E5.95105
G1 X89.703 Y113.364 E5.98151
G1 X89.766 Y112.123 E6.0435
G1 X89.981 Y108.044 E6.24729
G1 X90.026 Y107.396 E6.27969
G1 X90.131 Y106.464 E6.32648
G1 X90.315 Y105.544 E6.37329
G1 X90.577 Y104.644 E6.42006
G1 X90.883 Y103.84 E6.46298
G1 X91.125 Y103.273 E6.49373
G1 X91.268 Y102.953 E6.51122
G1 X91.602 Y102.236 E6.55068
G1 X92.321 Y100.735 E6.63371
G1 X93.371 Y98.379 E6.7624
G1 X93.796 Y97.359 E6.81753
G1 X93.945 Y97.016 E6.83619
G1 X94.003 Y96.889 E6.84315
G1 X94.298 Y96.291 E6.87642
G1 X94.513 Y95.887 E6.89925
G1 X95.149 Y94.839 E6.96041
G1 X95.286 Y94.639 E6.97251
G1 X95.771 Y93.983 E7.01321
G1 X95.843 Y93.893 E7.01896
G1 X96.53 Y93.114 E7.07078
G0 F13200 X96.817 Y93.392
G1 F2100 X97.181 Y93.016 E7.09689
G1 X97.826 Y92.404 E7.14124
G1 X97.889 Y92.349 E7.14542
G1 X98.583 Y91.793 E7.18978
G1 X98.749 Y91.671 E7.20006
G1 X99.341 Y91.266 E7.23584
G1 X99.555 Y91.13 E7.2485
G1 X100.352 Y90.67 E7.29441
G1 X101.187 Y90.282 E7.34034
G1 X102.052 Y89.967 E7.38627
G1 X102.941 Y89.728 E7.4322
G1 X103.848 Y89.568 E7.47815
G1 X104.765 Y89.487 E7.52407
G1 X105.635 Y89.483 E7.56748
G1 X106.673 Y89.522 E7.6193
G1 X109.214 Y89.579 E7.7461
G1 X111.775 Y89.565 E7.87387
G1 X113.896 Y89.499 E7.97974
G1 X114.135 Y89.489 E7.99168
G1 X114.681 Y89.481 E8.01892
G1 X115.083 Y89.485 E8.03898
G1 X116.211 Y89.556 E8.09536
G1 X116.416 Y89.58 E8.10566
G1 X117.573 Y89.781 E8.16425
G1 X117.923 Y89.862 E8.18217
G1 X118.837 Y90.117 E8.22951
G1 X119.212 Y90.24 E8.2492
G1 X120.073 Y90.565 E8.29512
G1 X120.634 Y90.824 E8.32594
G1 X120.889 Y90.951 E8.34016
G1 X121.742 Y91.426 E8.38887
G1 X122.099 Y91.647 E8.40981
G1 X123.093 Y92.344 E8.47038
G1 X123.26 Y92.476 E8.481
G1 X124.001 Y93.119 E8.52995
G1 X124.236 Y93.343 E8.54614
G1 X124.884 Y94.019 E8.59286
G1 X125.265 Y94.475 E8.62251
G1 X125.531 Y94.812 E8.64393
G1 X126.07 Y95.558 E8.68984
G1 X126.366 Y96.036 E8.71789
G1 X126.586 Y96.413 E8.73967
G1 X127.149 Y97.524 E8.80181
G1 X127.257 Y97.772 E8.8153
G1 X127.498 Y98.373 E8.84761
G1 X127.533 Y98.469 E8.85271
G1 X127.722 Y99.037 E8.88257
G1 X127.881 Y99.565 E8.91008
G1 X128.687 Y102.099 E9.04275
G1 X129.324 Y103.943 E9.14008
G1 X129.662 Y104.888 E9.19015
G1 X129.768 Y105.2 E9.20659
G1 X129.934 Y105.714 E9.23354
G1 X130.04 Y106.063 E9.25173
G1 X130.179 Y106.55 E9.277
G1 X130.307 Y107.043 E9.30241
G1 X130.384 Y107.372 E9.31927
G1 X130.476 Y107.806 E9.3414
G1 X130.559 Y108.242 E9.36354
G1 X130.617 Y108.578 E9.38056
G1 X130.653 Y108.807 E9.39212
G1 X130.705 Y109.175 E9.41066
G1 X130.744 Y109.496 E9.4268
G1 X130.79 Y109.933 E9.44872
G1 X130.829 Y110.449 E9.47453
G1 X130.842 Y110.702 E9.48717
G1 X130.855 Y111.096 E9.50684
G1 X130.866 Y111.873 E9.54561
G1 X130.852 Y112.581 E9.58094
G1 X130.818 Y113.226 E9.61316
G1 X130.793 Y113.586 E9.63117
G1 X130.773 Y113.816 E9.64268
G1 X130.732 Y114.206 E9.66225
G1 X130.661 Y114.777 E9.69096
G1 X130.511 Y115.671 E9.73618
G1 X130.315 Y116.594 E9.78326
G1 X130.135 Y117.314 E9.82028
G1 X130.057 Y117.586 E9.8344
G1 X129.949 Y117.942 E9.85296
G1 X129.79 Y118.431 E9.87861
G1 X129.69 Y118.722 E9.89396
G1 X129.562 Y119.08 E9.91293
G1 X129.319 Y119.698 E9.94606
G1 X129.187 Y120.005 E9.96273
G1 X129.049 Y120.313 E9.97957
G1 X128.254 Y122.008 E10.07298
G1 X127.995 Y122.541 E10.10254
G1 X126.959 Y124.839 E10.2283
G1 X126.497 Y125.937 E10.28773
G1 X126.249 Y126.504 E10.31861
G1 X126.003 Y127.025 E10.34735
G1 X125.863 Y127.302 E10.36284
G1 X125.461 Y128.027 E10.40419
G1 X125.368 Y128.18 E10.41313
G1 X124.939 Y128.831 E10.45202
G1 X124.797 Y129.03 E10.46422
G1 X124.045 Y129.966 E10.52412
G1 X123.837 Y130.197 E10.53963
G1 X123.328 Y130.724 E10.57618
G1 X123.177 Y130.87 E10.58666
G1 X122.656 Y131.342 E10.62174
G1 X122.396 Y131.562 E10.63873
G1 X121.407 Y132.304 E10.70041
G1 X121.223 Y132.426 E10.71143
G1 X120.549 Y132.838 E10.75084
G1 X120.335 Y132.958 E10.76308
G1 X119.596 Y133.335 E10.80447
G1 X119.412 Y133.42 E10.81458
G1 X118.893 Y133.643 E10.84276
G1 X117.992 Y133.961 E10.89043
G1 X117.5 Y134.11 E10.91608
G1 X116.608 Y134.338 E10.96201
G1 X116.011 Y134.446 E10.99228
G1 X115.733 Y134.488 E11.0063
G1 X114.76 Y134.589 E11.05511
G1 X114.361 Y134.612 E11.07505
G1 X112.983 Y134.602 E11.1438
G1 X112.639 Y134.577 E11.16101
G1 X112.042 Y134.517 E11.19094
G1 X111.146 Y134.4 E11.23602
G1 X109.628 Y134.185 E11.31251
G1 X107.142 Y133.906 E11.43732
G1 X104.611 Y133.708 E11.56397
G1 X104.363 Y133.678 E11.57644
G1 X103.256 Y133.595 E11.63182
G1 X102.342 Y133.486 E11.67774
G1 X101.441 Y133.299 E11.72365
G1 X100.559 Y133.034 E11.7696
G1 X99.703 Y132.694 E11.81555
G1 X98.881 Y132.281 E11.86144
G1 X98.097 Y131.798 E11.90739
G1 X97.669 Y131.492 E11.93363
G1 X97.503 Y131.367 E11.944
G1 X96.695 Y130.693 E11.9965
G1 X96.465 Y130.481 E12.0121
G1 X95.572 Y129.551 E12.07643
G1 X95.357 Y129.298 E12.09299
G1 X94.688 Y128.422 E12.14798
G1 X94.536 Y128.2 E12.16141
G1 X94.049 Y127.419 E12.20732
G1 X93.813 Y126.975 E12.23241
G1 X93.564 Y126.48 E12.26005
G1 X93.261 Y125.824 E12.2961
G1 X92.911 Y124.876 E12.34652
G1 X92.574 Y123.809 E12.40235
G1 X92.495 Y123.546 E12.41605
G1 X91.707 Y121.102 E12.54416
G1 X91.306 Y119.965 E12.60431
G1 X90.829 Y118.587 E12.67706
G1 X90.72 Y118.256 E12.69445
G1 X90.541 Y117.678 E12.72463
G1 X90.308 Y116.787 E12.77058
G1 X90.152 Y115.88 E12.81649
G1 X90.075 Y114.962 E12.86245
G1 X90.068 Y114.372 E12.89189
G1 X90.078 Y113.99 E12.91096
G1 X90.103 Y113.384 E12.94122
G1 X90.166 Y112.144 E13.00316
G1 X90.38 Y108.072 E13.20659
G1 X90.425 Y107.424 E13.239
G1 X90.529 Y106.509 E13.28494
G1 X90.712 Y105.606 E13.33091
G1 X90.972 Y104.723 E13.37683
G1 X91.251 Y103.997 E13.41564
G1 X91.493 Y103.43 E13.44639
G1 X91.63 Y103.122 E13.46321
G1 X91.963 Y102.409 E13.50247
G1 X92.69 Y100.892 E13.5864
G1 X93.726 Y98.568 E13.71334
G1 X94.165 Y97.513 E13.77035
G1 X94.309 Y97.183 E13.78831
G1 X94.367 Y97.056 E13.79528
G1 X94.652 Y96.479 E13.82738
G1 X94.867 Y96.075 E13.85022
G1 X95.479 Y95.065 E13.90913
G1 X95.616 Y94.865 E13.92123
G1 X96.084 Y94.233 E13.96046
G1 X96.156 Y94.143 E13.96621
G1 X96.817 Y93.392 E14.01613
G0 F13200 X97.105 Y93.67
G1 F2100 X97.469 Y93.294 E14.04223
G1 X98.089 Y92.705 E14.0849
G1 X98.152 Y92.65 E14.08907
G1 X98.82 Y92.115 E14.13177
G1 X98.986 Y91.993 E14.14205
G1 X99.555 Y91.603 E14.17646
G1 X99.769 Y91.467 E14.18911
G1 X100.552 Y91.017 E14.23417
G1 X101.372 Y90.638 E14.27924
G1 X102.222 Y90.333 E14.32429
G1 X103.095 Y90.104 E14.36932
G1 X103.986 Y89.953 E14.4144
G1 X104.886 Y89.882 E14.45945
G1 X105.62 Y89.883 E14.49606
G1 X106.649 Y89.921 E14.54744
G1 X109.207 Y89.979 E14.67509
G1 X111.791 Y89.965 E14.80401
G1 X113.921 Y89.899 E14.91032
G1 X114.151 Y89.889 E14.92181
G1 X114.677 Y89.881 E14.94806
G1 X115.079 Y89.885 E14.96811
G1 X116.164 Y89.953 E15.02235
G1 X116.369 Y89.977 E15.03265
G1 X117.483 Y90.171 E15.08906
G1 X117.833 Y90.252 E15.10698
G1 X118.712 Y90.497 E15.15251
G1 X119.087 Y90.62 E15.1722
G1 X119.932 Y90.939 E15.21726
G1 X120.455 Y91.182 E15.24603
G1 X120.71 Y91.309 E15.26024
G1 X121.532 Y91.766 E15.30716
G1 X121.889 Y91.987 E15.32811
G1 X122.845 Y92.658 E15.38638
G1 X123.012 Y92.79 E15.397
G1 X123.725 Y93.409 E15.44411
G1 X123.96 Y93.633 E15.46031
G1 X124.562 Y94.258 E15.5036
G1 X124.951 Y94.722 E15.53381
G1 X125.217 Y95.059 E15.55523
G1 X125.745 Y95.792 E15.6003
G1 X126.021 Y96.238 E15.62646
G1 X126.241 Y96.615 E15.64824
G1 X126.783 Y97.683 E15.70799
G1 X126.891 Y97.931 E15.72149
G1 X127.122 Y98.51 E15.75259
G1 X127.157 Y98.606 E15.75769
G1 X127.339 Y99.153 E15.78645
G1 X127.509 Y99.717 E15.81584
G1 X128.295 Y102.188 E15.9452
G1 X128.968 Y104.138 E16.04812
G1 X129.285 Y105.023 E16.09502
G1 X129.387 Y105.323 E16.11083
G1 X129.553 Y105.837 E16.13777
G1 X129.655 Y106.173 E16.15529
G1 X129.794 Y106.66 E16.18056
G1 X129.918 Y107.135 E16.20505
G1 X129.995 Y107.464 E16.22191
G1 X130.083 Y107.881 E16.24317
G1 X130.166 Y108.317 E16.26531
G1 X130.222 Y108.64 E16.28167
G1 X130.258 Y108.869 E16.29323
G1 X130.308 Y109.223 E16.31107
G1 X130.347 Y109.544 E16.3272
G1 X130.392 Y109.973 E16.34872
G1 X130.43 Y110.47 E16.37359
G1 X130.443 Y110.723 E16.38623
G1 X130.455 Y111.102 E16.40515
G1 X130.466 Y111.879 E16.44392
G1 X130.453 Y112.56 E16.4779
G1 X130.419 Y113.205 E16.51012
G1 X130.395 Y113.552 E16.52747
G1 X130.375 Y113.782 E16.53899
G1 X130.335 Y114.157 E16.55781
G1 X130.264 Y114.728 E16.58651
G1 X130.12 Y115.588 E16.63002
G1 X129.924 Y116.511 E16.67709
G1 X129.751 Y117.204 E16.71273
G1 X129.673 Y117.476 E16.72684
G1 X129.568 Y117.818 E16.74469
G1 X129.409 Y118.307 E16.77035
G1 X129.314 Y118.587 E16.7851
G1 X129.186 Y118.945 E16.80407
G1 X128.952 Y119.54 E16.83596
G1 X128.82 Y119.847 E16.85264
G1 X128.686 Y120.143 E16.86885
G1 X127.894 Y121.833 E16.96196
G1 X127.635 Y122.367 E16.99157
G1 X126.591 Y124.682 E17.11827
G1 X126.066 Y125.926 E17.18563
G1 X125.883 Y126.343 E17.20835
G1 X125.646 Y126.845 E17.23605
G1 X125.506 Y127.122 E17.25153
G1 X125.119 Y127.819 E17.2913
G1 X125.026 Y127.972 E17.30024
G1 X124.613 Y128.599 E17.33769
G1 X124.471 Y128.798 E17.34989
G1 X123.748 Y129.698 E17.40749
G1 X123.54 Y129.929 E17.42299
G1 X123.05 Y130.437 E17.45821
G1 X122.899 Y130.583 E17.46869
G1 X122.398 Y131.037 E17.50242
G1 X122.138 Y131.257 E17.51941
G1 X121.186 Y131.971 E17.57878
G1 X121.002 Y132.093 E17.58979
G1 X120.354 Y132.489 E17.62768
G1 X120.14 Y132.609 E17.63992
G1 X119.429 Y132.972 E17.67975
G1 X119.245 Y133.057 E17.68986
G1 X118.743 Y133.273 E17.71713
G1 X117.876 Y133.578 E17.76298
G1 X117.384 Y133.727 E17.78863
G1 X116.509 Y133.95 E17.83367
G1 X115.952 Y134.051 E17.86192
G1 X115.674 Y134.093 E17.87594
G1 X114.737 Y134.19 E17.92294
G1 X114.338 Y134.213 E17.94288
G1 X113.012 Y134.203 E18.00904
G1 X112.668 Y134.178 E18.02624
G1 X112.094 Y134.12 E18.05503
G1 X111.202 Y134.004 E18.0999
G1 X109.657 Y133.786 E18.17775
G1 X107.189 Y133.508 E18.30165
G1 X104.642 Y133.309 E18.42911
G1 X104.396 Y133.279 E18.44148
G1 X103.286 Y133.196 E18.49701
G1 X102.389 Y133.089 E18.54208
G1 X101.506 Y132.903 E18.5871
G1 X100.642 Y132.64 E18.63216
G1 X99.805 Y132.301 E18.67721
G1 X99.001 Y131.889 E18.72228
G1 X97.909 Y131.172 E18.78745
G1 X97.743 Y131.047 E18.79782
